; generated by Slic3r 1.3.0 on 2020-02-03 at 19:21:24

; external perimeters extrusion width = 0.44mm (0.00mm^3/s)
; perimeters extrusion width = 0.45mm (0.00mm^3/s)
; infill extrusion width = 0.45mm (10.05mm^3/s)
; solid infill extrusion width = 0.45mm (4.40mm^3/s)
; top infill extrusion width = 0.45mm (3.14mm^3/s)

M190 S110 ; set bed temperature and wait for it to be reached
M104 S240 ; set temperature
M92 X62.84266768245373; calibrate X
M92 Y62.20856538461538; calibrate Y
M92 Z2276.685910548523; calibrate Z
M92 E494; calibrate E
G28 X0 ; home X axis
G28 Y0 ; home Y axis
G28 Z0 ; home Z axis

M109 S240 ; set temperature and wait for it to be reached
G21 ; set units to millimeters
G90 ; use absolute coordinates
M82 ; use absolute distances for extrusion
G92 E0
G1 E-2.00000 F1800.00000
G92 E0
G1 Z0.330 F7800.000
G1 X94.098 Y75.946 F7800.000
G1 E2.00000 F1800.00000
G1 F3490.17
G1 X94.146 Y75.488 E2.00840
G1 X94.376 Y75.088 E2.01679
G1 X94.751 Y74.817 E2.02522
G1 X94.549 Y74.727 E2.02925
G1 X94.240 Y74.384 E2.03764
G1 X94.098 Y73.946 E2.04604
G1 X94.146 Y73.488 E2.05444
G1 X94.376 Y73.088 E2.06284
G1 X94.751 Y72.817 E2.07127
G1 X94.549 Y72.727 E2.07529
G1 X94.240 Y72.384 E2.08369
G1 X94.098 Y71.946 E2.09209
G1 X94.146 Y71.488 E2.10048
G1 X94.376 Y71.088 E2.10888
G1 X94.751 Y70.817 E2.11731
G1 X94.549 Y70.727 E2.12134
G1 X94.240 Y70.384 E2.12973
G1 X94.098 Y69.946 E2.13813
G1 X94.146 Y69.488 E2.14653
G1 X94.376 Y69.088 E2.15492
G1 X94.751 Y68.817 E2.16335
G1 X94.549 Y68.727 E2.16738
G1 X94.240 Y68.384 E2.17578
G1 X94.098 Y67.946 E2.18417
G1 X94.146 Y67.488 E2.19257
G1 X94.376 Y67.088 E2.20097
G1 X94.723 Y66.836 E2.20878
G1 X95.002 Y66.746 E2.21412
G1 X95.431 Y66.746 E2.22193
G1 X95.851 Y66.933 E2.23033
G1 X96.226 Y67.349 E2.24052
G1 X96.376 Y67.088 E2.24601
G1 X96.723 Y66.836 E2.25382
G1 X97.002 Y66.746 E2.25916
G1 X97.431 Y66.746 E2.26697
G1 X97.851 Y66.933 E2.27537
G1 X98.226 Y67.349 E2.28556
G1 X98.376 Y67.088 E2.29105
G1 X98.723 Y66.836 E2.29886
G1 X99.002 Y66.746 E2.30419
G1 X99.431 Y66.746 E2.31201
G1 X99.851 Y66.933 E2.32040
G1 X100.200 Y67.321 E2.32990
G1 X100.548 Y66.933 E2.33938
G1 X100.970 Y66.746 E2.34779
G1 X101.430 Y66.746 E2.35618
G1 X101.821 Y66.920 E2.36398
G1 X102.040 Y67.116 E2.36932
G1 X102.175 Y67.349 E2.37423
G1 X102.548 Y66.933 E2.38442
G1 X102.970 Y66.746 E2.39282
G1 X103.430 Y66.746 E2.40122
G1 X103.821 Y66.920 E2.40902
G1 X104.040 Y67.116 E2.41436
G1 X104.255 Y67.488 E2.42220
G1 X104.302 Y67.947 E2.43059
G1 X104.160 Y68.384 E2.43897
G1 X103.852 Y68.727 E2.44737
G1 X103.687 Y68.800 E2.45065
G1 X104.040 Y69.116 E2.45927
G1 X104.255 Y69.488 E2.46711
G1 X104.302 Y69.947 E2.47551
G1 X104.160 Y70.384 E2.48388
G1 X103.852 Y70.727 E2.49228
G1 X103.687 Y70.800 E2.49556
G1 X104.040 Y71.116 E2.50418
G1 X104.255 Y71.488 E2.51203
G1 X104.302 Y71.947 E2.52042
G1 X104.160 Y72.384 E2.52879
G1 X103.852 Y72.727 E2.53719
G1 X103.687 Y72.800 E2.54047
G1 X104.040 Y73.116 E2.54910
G1 X104.255 Y73.488 E2.55694
G1 X104.302 Y73.947 E2.56533
G1 X104.160 Y74.384 E2.57370
G1 X103.852 Y74.727 E2.58210
G1 X103.687 Y74.800 E2.58538
G1 X104.040 Y75.116 E2.59401
G1 X104.255 Y75.488 E2.60185
G1 X104.302 Y75.947 E2.61024
G1 X104.160 Y76.384 E2.61862
G1 X103.852 Y76.727 E2.62702
G1 X103.430 Y76.914 E2.63542
G1 X102.970 Y76.914 E2.64382
G1 X102.579 Y76.740 E2.65162
G1 X102.360 Y76.544 E2.65696
G1 X102.225 Y76.311 E2.66187
G1 X101.852 Y76.727 E2.67205
G1 X101.430 Y76.914 E2.68045
G1 X100.970 Y76.914 E2.68885
G1 X100.579 Y76.740 E2.69665
G1 X100.360 Y76.544 E2.70199
G1 X100.200 Y76.266 E2.70784
G1 X100.024 Y76.572 E2.71426
G1 X99.677 Y76.824 E2.72207
G1 X99.398 Y76.914 E2.72741
G1 X98.969 Y76.914 E2.73522
G1 X98.549 Y76.727 E2.74362
G1 X98.174 Y76.311 E2.75381
G1 X98.024 Y76.572 E2.75930
G1 X97.677 Y76.824 E2.76711
G1 X97.398 Y76.914 E2.77245
G1 X96.969 Y76.914 E2.78026
G1 X96.549 Y76.727 E2.78865
G1 X96.174 Y76.311 E2.79885
G1 X96.024 Y76.572 E2.80433
G1 X95.677 Y76.824 E2.81215
G1 X95.398 Y76.914 E2.81748
G1 X94.969 Y76.914 E2.82530
G1 X94.549 Y76.727 E2.83369
G1 X94.240 Y76.384 E2.84209
G1 X94.116 Y76.003 E2.84939
G1 E0.84939 F1800.00000
G92 E0
G1 X100.655 Y76.305 F7800.000
G1 E2.00000 F1800.00000
G1 F900
G1 X100.510 Y76.054 E2.00513
G1 X100.479 Y75.754 E2.01045
G1 X100.572 Y75.468 E2.01576
G1 X100.774 Y75.244 E2.02109
G1 X101.049 Y75.121 E2.02642
G1 X101.351 Y75.121 E2.03174
G1 X101.615 Y75.239 E2.03685
G1 X101.745 Y75.355 E2.03994
G1 X101.890 Y75.606 E2.04506
G1 X101.921 Y75.906 E2.05038
G1 X101.828 Y76.192 E2.05570
G1 X101.626 Y76.416 E2.06102
G1 X101.351 Y76.539 E2.06635
G1 X101.049 Y76.539 E2.07168
G1 X100.785 Y76.421 E2.07679
G1 X100.700 Y76.345 E2.07881
G1 X100.369 Y76.354 F7800.000
G1 X99.505 Y76.485 F7800.000
G1 F900
G1 X99.339 Y76.539 E2.08189
G1 X99.049 Y76.539 E2.08700
G1 X98.774 Y76.416 E2.09233
G1 X98.572 Y76.192 E2.09765
G1 X98.479 Y75.906 E2.10298
G1 X98.511 Y75.606 E2.10830
G1 X98.661 Y75.345 E2.11363
G1 X98.895 Y75.175 E2.11874
G1 X99.061 Y75.121 E2.12182
G1 X99.351 Y75.121 E2.12694
G1 X99.626 Y75.244 E2.13226
G1 X99.828 Y75.468 E2.13758
G1 X99.921 Y75.754 E2.14291
G1 X99.889 Y76.054 E2.14823
G1 X99.739 Y76.315 E2.15356
G1 X99.553 Y76.450 E2.15761
G1 X99.499 Y76.659 F7800.000
G1 X99.505 Y74.485 F7800.000
G1 F900
G1 X99.339 Y74.539 E2.16069
G1 X99.049 Y74.539 E2.16581
G1 X98.774 Y74.416 E2.17113
G1 X98.572 Y74.192 E2.17646
G1 X98.479 Y73.906 E2.18178
G1 X98.511 Y73.606 E2.18711
G1 X98.661 Y73.345 E2.19243
G1 X98.895 Y73.175 E2.19755
G1 X99.061 Y73.121 E2.20062
G1 X99.351 Y73.121 E2.20574
G1 X99.626 Y73.244 E2.21106
G1 X99.828 Y73.468 E2.21639
G1 X99.921 Y73.754 E2.22171
G1 X99.889 Y74.054 E2.22704
G1 X99.739 Y74.315 E2.23236
G1 X99.553 Y74.450 E2.23642
G1 X99.499 Y74.659 F7800.000
G1 X100.655 Y74.305 F7800.000
G1 F900
G1 X100.510 Y74.054 E2.24155
G1 X100.479 Y73.754 E2.24687
G1 X100.572 Y73.468 E2.25218
G1 X100.774 Y73.244 E2.25751
G1 X101.049 Y73.121 E2.26283
G1 X101.351 Y73.121 E2.26816
G1 X101.615 Y73.239 E2.27327
G1 X101.745 Y73.355 E2.27635
G1 X101.890 Y73.606 E2.28148
G1 X101.921 Y73.906 E2.28680
G1 X101.828 Y74.192 E2.29212
G1 X101.626 Y74.416 E2.29744
G1 X101.351 Y74.539 E2.30277
G1 X101.049 Y74.539 E2.30810
G1 X100.785 Y74.421 E2.31321
G1 X100.700 Y74.345 E2.31523
G1 X100.369 Y74.354 F7800.000
G1 E0.31523 F1800.00000
G92 E0
G1 X100.655 Y72.305 F7800.000
G1 E2.00000 F1800.00000
G1 F900
G1 X100.510 Y72.054 E2.00513
G1 X100.479 Y71.754 E2.01045
G1 X100.572 Y71.468 E2.01576
G1 X100.774 Y71.244 E2.02109
G1 X101.049 Y71.121 E2.02642
G1 X101.351 Y71.121 E2.03174
G1 X101.615 Y71.239 E2.03685
G1 X101.745 Y71.355 E2.03994
G1 X101.890 Y71.606 E2.04506
G1 X101.921 Y71.906 E2.05038
G1 X101.828 Y72.192 E2.05570
G1 X101.626 Y72.416 E2.06102
G1 X101.351 Y72.539 E2.06635
G1 X101.049 Y72.539 E2.07168
G1 X100.785 Y72.421 E2.07679
G1 X100.700 Y72.345 E2.07881
G1 X100.369 Y72.354 F7800.000
G1 X99.505 Y72.485 F7800.000
G1 F900
G1 X99.339 Y72.539 E2.08189
G1 X99.049 Y72.539 E2.08700
G1 X98.774 Y72.416 E2.09233
G1 X98.572 Y72.192 E2.09765
G1 X98.479 Y71.906 E2.10298
G1 X98.511 Y71.606 E2.10830
G1 X98.661 Y71.345 E2.11363
G1 X98.895 Y71.175 E2.11874
G1 X99.061 Y71.121 E2.12182
G1 X99.351 Y71.121 E2.12694
G1 X99.626 Y71.244 E2.13226
G1 X99.828 Y71.468 E2.13758
G1 X99.921 Y71.754 E2.14291
G1 X99.889 Y72.054 E2.14823
G1 X99.739 Y72.315 E2.15356
G1 X99.553 Y72.450 E2.15761
G1 X99.499 Y72.659 F7800.000
G1 X99.505 Y70.485 F7800.000
G1 F900
G1 X99.339 Y70.539 E2.16069
G1 X99.049 Y70.539 E2.16581
G1 X98.774 Y70.416 E2.17113
G1 X98.572 Y70.192 E2.17646
G1 X98.479 Y69.906 E2.18178
G1 X98.511 Y69.606 E2.18711
G1 X98.661 Y69.345 E2.19243
G1 X98.895 Y69.175 E2.19755
G1 X99.061 Y69.121 E2.20062
G1 X99.351 Y69.121 E2.20574
G1 X99.626 Y69.244 E2.21106
G1 X99.828 Y69.468 E2.21639
G1 X99.921 Y69.754 E2.22171
G1 X99.889 Y70.054 E2.22704
G1 X99.739 Y70.315 E2.23236
G1 X99.553 Y70.450 E2.23642
G1 X99.499 Y70.659 F7800.000
G1 X100.655 Y70.305 F7800.000
G1 F900
G1 X100.510 Y70.054 E2.24155
G1 X100.479 Y69.754 E2.24687
G1 X100.572 Y69.468 E2.25218
G1 X100.774 Y69.244 E2.25751
G1 X101.049 Y69.121 E2.26283
G1 X101.351 Y69.121 E2.26816
G1 X101.615 Y69.239 E2.27327
G1 X101.745 Y69.355 E2.27635
G1 X101.890 Y69.606 E2.28148
G1 X101.921 Y69.906 E2.28680
G1 X101.828 Y70.192 E2.29212
G1 X101.626 Y70.416 E2.29744
G1 X101.351 Y70.539 E2.30277
G1 X101.049 Y70.539 E2.30810
G1 X100.785 Y70.421 E2.31321
G1 X100.700 Y70.345 E2.31523
G1 X100.369 Y70.354 F7800.000
G1 E0.31523 F1800.00000
G92 E0
G1 X100.655 Y68.305 F7800.000
G1 E2.00000 F1800.00000
G1 F900
G1 X100.510 Y68.054 E2.00513
G1 X100.479 Y67.754 E2.01045
G1 X100.572 Y67.468 E2.01576
G1 X100.774 Y67.244 E2.02109
G1 X101.049 Y67.121 E2.02642
G1 X101.351 Y67.121 E2.03174
G1 X101.615 Y67.239 E2.03685
G1 X101.745 Y67.355 E2.03994
G1 X101.890 Y67.606 E2.04506
G1 X101.921 Y67.906 E2.05038
G1 X101.828 Y68.192 E2.05570
G1 X101.626 Y68.416 E2.06102
G1 X101.351 Y68.539 E2.06635
G1 X101.049 Y68.539 E2.07168
G1 X100.785 Y68.421 E2.07679
G1 X100.700 Y68.345 E2.07881
G1 X100.369 Y68.354 F7800.000
G1 X99.505 Y68.485 F7800.000
G1 F900
G1 X99.339 Y68.539 E2.08189
G1 X99.049 Y68.539 E2.08700
G1 X98.774 Y68.416 E2.09233
G1 X98.572 Y68.192 E2.09765
G1 X98.479 Y67.906 E2.10298
G1 X98.511 Y67.606 E2.10830
G1 X98.661 Y67.345 E2.11363
G1 X98.895 Y67.175 E2.11874
G1 X99.061 Y67.121 E2.12182
G1 X99.351 Y67.121 E2.12694
G1 X99.626 Y67.244 E2.13226
G1 X99.828 Y67.468 E2.13758
G1 X99.921 Y67.754 E2.14291
G1 X99.889 Y68.054 E2.14823
G1 X99.739 Y68.315 E2.15356
G1 X99.553 Y68.450 E2.15761
G1 X99.499 Y68.659 F7800.000
G1 E0.15761 F1800.00000
G92 E0
G1 X97.505 Y68.485 F7800.000
G1 E2.00000 F1800.00000
G1 F900
G1 X97.339 Y68.539 E2.00308
G1 X97.049 Y68.539 E2.00819
G1 X96.774 Y68.416 E2.01352
G1 X96.572 Y68.192 E2.01884
G1 X96.479 Y67.906 E2.02417
G1 X96.511 Y67.606 E2.02949
G1 X96.661 Y67.345 E2.03482
G1 X96.895 Y67.175 E2.03993
G1 X97.061 Y67.121 E2.04301
G1 X97.351 Y67.121 E2.04813
G1 X97.626 Y67.244 E2.05345
G1 X97.828 Y67.468 E2.05877
G1 X97.921 Y67.754 E2.06410
G1 X97.889 Y68.054 E2.06942
G1 X97.739 Y68.315 E2.07475
G1 X97.553 Y68.450 E2.07880
G1 X97.499 Y68.659 F7800.000
G1 E0.07880 F1800.00000
G92 E0
G1 X95.505 Y68.485 F7800.000
G1 E2.00000 F1800.00000
G1 F900
G1 X95.339 Y68.539 E2.00308
G1 X95.049 Y68.539 E2.00819
G1 X94.774 Y68.416 E2.01352
G1 X94.572 Y68.192 E2.01884
G1 X94.479 Y67.906 E2.02417
G1 X94.511 Y67.606 E2.02949
G1 X94.661 Y67.345 E2.03482
G1 X94.895 Y67.175 E2.03993
G1 X95.061 Y67.121 E2.04301
G1 X95.351 Y67.121 E2.04813
G1 X95.626 Y67.244 E2.05345
G1 X95.828 Y67.468 E2.05877
G1 X95.921 Y67.754 E2.06410
G1 X95.889 Y68.054 E2.06942
G1 X95.739 Y68.315 E2.07475
G1 X95.553 Y68.450 E2.07880
G1 X95.499 Y68.659 F7800.000
G1 E0.07880 F1800.00000
G92 E0
G1 X95.505 Y70.485 F7800.000
G1 E2.00000 F1800.00000
G1 F900
G1 X95.339 Y70.539 E2.00308
G1 X95.049 Y70.539 E2.00819
G1 X94.774 Y70.416 E2.01352
G1 X94.572 Y70.192 E2.01884
G1 X94.479 Y69.906 E2.02417
G1 X94.511 Y69.606 E2.02949
G1 X94.661 Y69.345 E2.03482
G1 X94.895 Y69.175 E2.03993
G1 X95.061 Y69.121 E2.04301
G1 X95.351 Y69.121 E2.04813
G1 X95.626 Y69.244 E2.05345
G1 X95.828 Y69.468 E2.05877
G1 X95.921 Y69.754 E2.06410
G1 X95.889 Y70.054 E2.06942
G1 X95.739 Y70.315 E2.07475
G1 X95.553 Y70.450 E2.07880
G1 X95.499 Y70.659 F7800.000
G1 X97.505 Y70.485 F7800.000
G1 F900
G1 X97.339 Y70.539 E2.08188
G1 X97.049 Y70.539 E2.08700
G1 X96.774 Y70.416 E2.09232
G1 X96.572 Y70.192 E2.09765
G1 X96.479 Y69.906 E2.10297
G1 X96.511 Y69.606 E2.10830
G1 X96.661 Y69.345 E2.11362
G1 X96.895 Y69.175 E2.11874
G1 X97.061 Y69.121 E2.12181
G1 X97.351 Y69.121 E2.12693
G1 X97.626 Y69.244 E2.13225
G1 X97.828 Y69.468 E2.13758
G1 X97.921 Y69.754 E2.14290
G1 X97.889 Y70.054 E2.14823
G1 X97.739 Y70.315 E2.15355
G1 X97.553 Y70.450 E2.15761
G1 X97.499 Y70.659 F7800.000
G1 E0.15761 F1800.00000
G92 E0
G1 X97.505 Y72.485 F7800.000
G1 E2.00000 F1800.00000
G1 F900
G1 X97.339 Y72.539 E2.00308
G1 X97.049 Y72.539 E2.00819
G1 X96.774 Y72.416 E2.01352
G1 X96.572 Y72.192 E2.01884
G1 X96.479 Y71.906 E2.02417
G1 X96.511 Y71.606 E2.02949
G1 X96.661 Y71.345 E2.03482
G1 X96.895 Y71.175 E2.03993
G1 X97.061 Y71.121 E2.04301
G1 X97.351 Y71.121 E2.04813
G1 X97.626 Y71.244 E2.05345
G1 X97.828 Y71.468 E2.05877
G1 X97.921 Y71.754 E2.06410
G1 X97.889 Y72.054 E2.06942
G1 X97.739 Y72.315 E2.07475
G1 X97.553 Y72.450 E2.07880
G1 X97.499 Y72.659 F7800.000
G1 E0.07880 F1800.00000
G92 E0
G1 X95.505 Y72.485 F7800.000
G1 E2.00000 F1800.00000
G1 F900
G1 X95.339 Y72.539 E2.00308
G1 X95.049 Y72.539 E2.00819
G1 X94.774 Y72.416 E2.01352
G1 X94.572 Y72.192 E2.01884
G1 X94.479 Y71.906 E2.02417
G1 X94.511 Y71.606 E2.02949
G1 X94.661 Y71.345 E2.03482
G1 X94.895 Y71.175 E2.03993
G1 X95.061 Y71.121 E2.04301
G1 X95.351 Y71.121 E2.04813
G1 X95.626 Y71.244 E2.05345
G1 X95.828 Y71.468 E2.05877
G1 X95.921 Y71.754 E2.06410
G1 X95.889 Y72.054 E2.06942
G1 X95.739 Y72.315 E2.07475
G1 X95.553 Y72.450 E2.07880
G1 X95.499 Y72.659 F7800.000
G1 E0.07880 F1800.00000
G92 E0
G1 X95.505 Y74.485 F7800.000
G1 E2.00000 F1800.00000
G1 F900
G1 X95.339 Y74.539 E2.00308
G1 X95.049 Y74.539 E2.00819
G1 X94.774 Y74.416 E2.01352
G1 X94.572 Y74.192 E2.01884
G1 X94.479 Y73.906 E2.02417
G1 X94.511 Y73.606 E2.02949
G1 X94.661 Y73.345 E2.03482
G1 X94.895 Y73.175 E2.03993
G1 X95.061 Y73.121 E2.04301
G1 X95.351 Y73.121 E2.04813
G1 X95.626 Y73.244 E2.05345
G1 X95.828 Y73.468 E2.05877
G1 X95.921 Y73.754 E2.06410
G1 X95.889 Y74.054 E2.06942
G1 X95.739 Y74.315 E2.07475
G1 X95.553 Y74.450 E2.07880
G1 X95.499 Y74.659 F7800.000
G1 X97.505 Y74.485 F7800.000
G1 F900
G1 X97.339 Y74.539 E2.08188
G1 X97.049 Y74.539 E2.08700
G1 X96.774 Y74.416 E2.09232
G1 X96.572 Y74.192 E2.09765
G1 X96.479 Y73.906 E2.10297
G1 X96.511 Y73.606 E2.10830
G1 X96.661 Y73.345 E2.11362
G1 X96.895 Y73.175 E2.11874
G1 X97.061 Y73.121 E2.12181
G1 X97.351 Y73.121 E2.12693
G1 X97.626 Y73.244 E2.13225
G1 X97.828 Y73.468 E2.13758
G1 X97.921 Y73.754 E2.14290
G1 X97.889 Y74.054 E2.14823
G1 X97.739 Y74.315 E2.15355
G1 X97.553 Y74.450 E2.15761
G1 X97.499 Y74.659 F7800.000
G1 E0.15761 F1800.00000
G92 E0
G1 X97.505 Y76.485 F7800.000
G1 E2.00000 F1800.00000
G1 F900
G1 X97.339 Y76.539 E2.00308
G1 X97.049 Y76.539 E2.00819
G1 X96.774 Y76.416 E2.01352
G1 X96.572 Y76.192 E2.01884
G1 X96.479 Y75.906 E2.02417
G1 X96.511 Y75.606 E2.02949
G1 X96.661 Y75.345 E2.03482
G1 X96.895 Y75.175 E2.03993
G1 X97.061 Y75.121 E2.04301
G1 X97.351 Y75.121 E2.04813
G1 X97.626 Y75.244 E2.05345
G1 X97.828 Y75.468 E2.05877
G1 X97.921 Y75.754 E2.06410
G1 X97.889 Y76.054 E2.06942
G1 X97.739 Y76.315 E2.07475
G1 X97.553 Y76.450 E2.07880
G1 X97.499 Y76.659 F7800.000
G1 E0.07880 F1800.00000
G92 E0
G1 X95.505 Y76.485 F7800.000
G1 E2.00000 F1800.00000
G1 F900
G1 X95.339 Y76.539 E2.00308
G1 X95.049 Y76.539 E2.00819
G1 X94.774 Y76.416 E2.01352
G1 X94.572 Y76.192 E2.01884
G1 X94.479 Y75.906 E2.02417
G1 X94.511 Y75.606 E2.02949
G1 X94.661 Y75.345 E2.03482
G1 X94.895 Y75.175 E2.03993
G1 X95.061 Y75.121 E2.04301
G1 X95.351 Y75.121 E2.04813
G1 X95.626 Y75.244 E2.05345
G1 X95.828 Y75.468 E2.05877
G1 X95.921 Y75.754 E2.06410
G1 X95.889 Y76.054 E2.06942
G1 X95.739 Y76.315 E2.07475
G1 X95.553 Y76.450 E2.07880
G1 X95.499 Y76.659 F7800.000
G1 E0.07880 F1800.00000
G92 E0
G1 X102.655 Y76.305 F7800.000
G1 E2.00000 F1800.00000
G1 F900
G1 X102.510 Y76.054 E2.00513
G1 X102.479 Y75.754 E2.01045
G1 X102.572 Y75.468 E2.01576
G1 X102.774 Y75.244 E2.02109
G1 X103.049 Y75.121 E2.02642
G1 X103.351 Y75.121 E2.03174
G1 X103.615 Y75.239 E2.03685
G1 X103.745 Y75.355 E2.03994
G1 X103.890 Y75.606 E2.04506
G1 X103.921 Y75.906 E2.05038
G1 X103.828 Y76.192 E2.05570
G1 X103.626 Y76.416 E2.06102
G1 X103.351 Y76.539 E2.06635
G1 X103.049 Y76.539 E2.07168
G1 X102.785 Y76.421 E2.07679
G1 X102.700 Y76.345 E2.07881
G1 X102.369 Y76.354 F7800.000
G1 E0.07881 F1800.00000
G92 E0
G1 X102.655 Y74.305 F7800.000
G1 E2.00000 F1800.00000
G1 F900
G1 X102.510 Y74.054 E2.00513
G1 X102.479 Y73.754 E2.01045
G1 X102.572 Y73.468 E2.01576
G1 X102.774 Y73.244 E2.02109
G1 X103.049 Y73.121 E2.02642
G1 X103.351 Y73.121 E2.03174
G1 X103.615 Y73.239 E2.03685
G1 X103.745 Y73.355 E2.03994
G1 X103.890 Y73.606 E2.04506
