; generated by Slic3r 1.3.0 on 2020-02-04 at 19:01:37

; external perimeters extrusion width = 0.44mm (0.00mm^3/s)
; perimeters extrusion width = 0.45mm (0.00mm^3/s)
; infill extrusion width = 0.45mm (10.05mm^3/s)
; solid infill extrusion width = 0.45mm (4.40mm^3/s)
; top infill extrusion width = 0.45mm (3.14mm^3/s)

M190 S110 ; set bed temperature and wait for it to be reached
M104 S240 ; set temperature
M92 X62.84266768245373; calibrate X
M92 Y62.20856538461538; calibrate Y
M92 Z2276.685910548523; calibrate Z
M92 E494; calibrate E
G28 X0 ; home X axis
G28 Y0 ; home Y axis
G28 Z0 ; home Z axis

M109 S240 ; set temperature and wait for it to be reached
G21 ; set units to millimeters
G90 ; use absolute coordinates
M82 ; use absolute distances for extrusion
G92 E0
G1 E-2.00000 F1800.00000
G92 E0
G1 Z0.330 F7800.000
G1 X102.008 Y78.956 F7800.000
G1 E2.00000 F1800.00000
G1 F900
G1 X101.441 Y78.772 E2.01085
G1 X100.926 Y78.474 E2.02170
G1 X100.483 Y78.076 E2.03255
G1 X100.133 Y77.594 E2.04340
G1 X99.891 Y77.050 E2.05425
G1 X99.767 Y76.468 E2.06510
G1 X99.767 Y75.872 E2.07595
G1 X99.891 Y75.290 E2.08680
G1 X100.133 Y74.746 E2.09765
G1 X100.483 Y74.264 E2.10850
G1 X100.926 Y73.866 E2.11935
G1 X101.443 Y73.567 E2.13024
G1 X102.027 Y73.382 E2.14140
G1 X102.600 Y73.322 E2.15189
G1 X103.192 Y73.384 E2.16274
G1 X103.758 Y73.568 E2.17359
G1 X104.274 Y73.866 E2.18444
G1 X104.717 Y74.264 E2.19529
G1 X105.067 Y74.746 E2.20614
G1 X105.309 Y75.290 E2.21699
G1 X105.433 Y75.872 E2.22784
G1 X105.433 Y76.468 E2.23869
G1 X105.309 Y77.050 E2.24954
G1 X105.067 Y77.594 E2.26039
G1 X104.717 Y78.076 E2.27124
G1 X104.274 Y78.474 E2.28209
G1 X103.758 Y78.772 E2.29294
G1 X103.192 Y78.956 E2.30379
G1 X102.600 Y79.018 E2.31464
G1 X102.067 Y78.962 E2.32439
G1 X102.086 Y78.587 F7800.000
G1 F900
G1 X101.595 Y78.428 E2.33352
G1 X101.147 Y78.169 E2.34264
G1 X100.764 Y77.824 E2.35177
G1 X100.460 Y77.406 E2.36090
G1 X100.250 Y76.934 E2.37002
G1 X100.142 Y76.428 E2.37915
G1 X100.142 Y75.912 E2.38828
G1 X100.250 Y75.406 E2.39740
G1 X100.460 Y74.934 E2.40653
G1 X100.764 Y74.516 E2.41565
G1 X101.147 Y74.171 E2.42478
G1 X101.596 Y73.912 E2.43392
G1 X102.104 Y73.751 E2.44335
G1 X102.600 Y73.699 E2.45215
G1 X103.114 Y73.753 E2.46128
G1 X103.605 Y73.912 E2.47040
G1 X104.053 Y74.171 E2.47953
G1 X104.436 Y74.516 E2.48866
G1 X104.740 Y74.934 E2.49778
G1 X104.950 Y75.406 E2.50691
G1 X105.058 Y75.912 E2.51604
G1 X105.058 Y76.428 E2.52516
G1 X104.950 Y76.934 E2.53429
G1 X104.740 Y77.406 E2.54341
G1 X104.436 Y77.824 E2.55254
G1 X104.053 Y78.169 E2.56167
G1 X103.605 Y78.428 E2.57079
G1 X103.114 Y78.587 E2.57992
G1 X102.600 Y78.641 E2.58905
G1 X102.146 Y78.593 E2.59711
G1 X102.086 Y78.587 F7800.000
G1 E0.59711 F1800.00000
G92 E0
G1 X57.395 Y64.195 F7800.000
G1 E2.00000 F1800.00000
G1 F3490.17
G1 X36.105 Y64.195 E2.38792
G1 X36.105 Y43.805 E2.75945
G1 X57.395 Y43.805 E3.14737
G1 X57.395 Y64.135 E3.51781
G1 X57.020 Y63.820 F7800.000
G1 F3600
G1 X36.480 Y63.820 E3.88065
G1 X36.480 Y44.180 E4.22759
G1 X57.020 Y44.180 E4.59043
G1 X57.020 Y63.760 E4.93631
G1 X57.126 Y64.206 F7800.000
G1 E2.93631 F1800.00000
G92 E0
G1 X15.300 Y39.709 F7800.000
G1 E2.00000 F1800.00000
G1 F3490.17
G1 X15.184 Y39.969 E2.00519
G1 X14.988 Y40.239 E2.01128
G1 X14.739 Y40.463 E2.01736
G1 X14.450 Y40.630 E2.02345
G1 X14.132 Y40.733 E2.02954
G1 X13.800 Y40.768 E2.03563
G1 X13.468 Y40.733 E2.04172
G1 X13.150 Y40.630 E2.04780
G1 X12.861 Y40.463 E2.05389
G1 X12.612 Y40.239 E2.05998
G1 X12.416 Y39.969 E2.06607
G1 X12.300 Y39.709 E2.07126
G1 X12.184 Y39.969 E2.07645
G1 X11.988 Y40.239 E2.08254
G1 X11.740 Y40.463 E2.08862
G1 X11.450 Y40.630 E2.09471
G1 X11.132 Y40.733 E2.10080
G1 X10.800 Y40.768 E2.10689
G1 X10.468 Y40.733 E2.11298
G1 X10.150 Y40.630 E2.11907
G1 X9.860 Y40.463 E2.12517
G1 X9.612 Y40.239 E2.13125
G1 X9.416 Y39.969 E2.13733
G1 X9.300 Y39.709 E2.14253
G1 X9.184 Y39.969 E2.14772
G1 X8.988 Y40.239 E2.15380
G1 X8.740 Y40.463 E2.15988
G1 X8.450 Y40.630 E2.16598
G1 X8.132 Y40.733 E2.17207
G1 X7.800 Y40.768 E2.17816
G1 X7.468 Y40.733 E2.18425
G1 X7.150 Y40.630 E2.19034
G1 X6.860 Y40.463 E2.19643
G1 X6.612 Y40.239 E2.20251
G1 X6.416 Y39.969 E2.20860
G1 X6.280 Y39.665 E2.21467
G1 X6.210 Y39.338 E2.22076
G1 X6.210 Y29.002 E2.40909
G1 X6.280 Y28.675 E2.41518
G1 X6.416 Y28.371 E2.42126
G1 X6.612 Y28.101 E2.42734
G1 X6.860 Y27.877 E2.43342
G1 X7.152 Y27.709 E2.43955
G1 X7.477 Y27.606 E2.44578
G1 X7.800 Y27.572 E2.45169
G1 X8.132 Y27.607 E2.45778
G1 X8.450 Y27.710 E2.46387
G1 X8.740 Y27.877 E2.46997
G1 X8.988 Y28.101 E2.47605
G1 X9.184 Y28.371 E2.48213
G1 X9.300 Y28.631 E2.48733
G1 X9.416 Y28.371 E2.49252
G1 X9.612 Y28.101 E2.49860
G1 X9.860 Y27.877 E2.50468
G1 X10.152 Y27.709 E2.51082
G1 X10.477 Y27.606 E2.51705
G1 X10.800 Y27.572 E2.52296
G1 X11.132 Y27.607 E2.52905
G1 X11.450 Y27.710 E2.53514
G1 X11.740 Y27.877 E2.54123
G1 X11.988 Y28.101 E2.54731
G1 X12.184 Y28.371 E2.55339
G1 X12.300 Y28.631 E2.55859
G1 X12.416 Y28.371 E2.56378
G1 X12.612 Y28.101 E2.56987
G1 X12.861 Y27.877 E2.57595
G1 X13.152 Y27.709 E2.58208
G1 X13.477 Y27.606 E2.58831
G1 X13.800 Y27.572 E2.59422
G1 X14.132 Y27.607 E2.60031
G1 X14.450 Y27.710 E2.60639
G1 X14.739 Y27.877 E2.61248
G1 X14.988 Y28.101 E2.61857
G1 X15.184 Y28.371 E2.62465
G1 X15.300 Y28.631 E2.62984
G1 X15.416 Y28.371 E2.63504
G1 X15.612 Y28.101 E2.64112
G1 X15.861 Y27.877 E2.64721
G1 X16.152 Y27.709 E2.65334
G1 X16.477 Y27.606 E2.65956
G1 X16.800 Y27.572 E2.66547
G1 X17.132 Y27.607 E2.67156
G1 X17.450 Y27.710 E2.67764
G1 X17.739 Y27.877 E2.68373
G1 X17.988 Y28.101 E2.68982
G1 X18.184 Y28.371 E2.69591
G1 X18.320 Y28.676 E2.70200
G1 X18.389 Y29.003 E2.70809
G1 X18.389 Y39.337 E2.89638
G1 X18.320 Y39.664 E2.90247
G1 X18.184 Y39.969 E2.90856
G1 X17.988 Y40.239 E2.91465
G1 X17.739 Y40.463 E2.92074
G1 X17.450 Y40.630 E2.92683
G1 X17.132 Y40.733 E2.93291
G1 X16.800 Y40.768 E2.93900
G1 X16.468 Y40.733 E2.94509
G1 X16.150 Y40.630 E2.95118
G1 X15.861 Y40.463 E2.95727
G1 X15.612 Y40.239 E2.96335
G1 X15.416 Y39.969 E2.96944
G1 X15.324 Y39.764 E2.97354
G1 X14.054 Y40.364 F7800.000
G1 F900
G1 X13.800 Y40.391 E2.97805
G1 X13.546 Y40.364 E2.98256
G1 X13.303 Y40.286 E2.98707
G1 X13.082 Y40.158 E2.99158
G1 X12.893 Y39.987 E2.99609
G1 X12.742 Y39.781 E3.00060
G1 X12.639 Y39.547 E3.00511
G1 X12.586 Y39.298 E3.00962
G1 X12.586 Y29.042 E3.19078
G1 X12.639 Y28.793 E3.19529
G1 X12.742 Y28.559 E3.19980
G1 X12.893 Y28.353 E3.20431
G1 X13.082 Y28.182 E3.20882
G1 X13.304 Y28.054 E3.21334
G1 X13.555 Y27.975 E3.21798
G1 X13.800 Y27.949 E3.22234
G1 X14.054 Y27.976 E3.22685
G1 X14.297 Y28.054 E3.23136
G1 X14.518 Y28.182 E3.23587
G1 X14.707 Y28.353 E3.24038
G1 X14.858 Y28.559 E3.24489
G1 X14.961 Y28.793 E3.24940
G1 X15.014 Y29.042 E3.25391
G1 X15.014 Y39.298 E3.43507
G1 X14.961 Y39.547 E3.43958
G1 X14.858 Y39.781 E3.44409
G1 X14.707 Y39.987 E3.44860
G1 X14.518 Y40.158 E3.45311
G1 X14.297 Y40.286 E3.45762
G1 X14.111 Y40.346 E3.46107
G1 X14.054 Y40.364 F7800.000
G1 E1.46107 F1800.00000
G92 E0
G1 X17.054 Y40.364 F7800.000
G1 E2.00000 F1800.00000
G1 F900
G1 X16.800 Y40.391 E2.00451
G1 X16.546 Y40.364 E2.00902
G1 X16.303 Y40.286 E2.01353
G1 X16.082 Y40.158 E2.01804
G1 X15.893 Y39.987 E2.02255
G1 X15.742 Y39.781 E2.02706
G1 X15.639 Y39.547 E2.03157
G1 X15.586 Y39.298 E2.03608
G1 X15.586 Y29.042 E2.21724
G1 X15.639 Y28.793 E2.22175
G1 X15.742 Y28.559 E2.22626
G1 X15.893 Y28.353 E2.23077
G1 X16.082 Y28.182 E2.23528
G1 X16.304 Y28.054 E2.23980
G1 X16.555 Y27.975 E2.24445
G1 X16.800 Y27.949 E2.24881
G1 X17.054 Y27.976 E2.25332
G1 X17.297 Y28.054 E2.25783
G1 X17.518 Y28.182 E2.26234
G1 X17.707 Y28.353 E2.26685
G1 X17.858 Y28.559 E2.27135
G1 X17.961 Y28.793 E2.27587
G1 X18.014 Y29.042 E2.28038
G1 X18.014 Y39.298 E2.46153
G1 X17.961 Y39.547 E2.46605
G1 X17.858 Y39.781 E2.47056
G1 X17.707 Y39.987 E2.47507
G1 X17.518 Y40.158 E2.47958
G1 X17.297 Y40.286 E2.48409
G1 X17.111 Y40.346 E2.48753
G1 X17.054 Y40.364 F7800.000
G1 E0.48753 F1800.00000
G92 E0
G1 X11.054 Y40.364 F7800.000
G1 E2.00000 F1800.00000
G1 F900
G1 X10.800 Y40.391 E2.00451
G1 X10.546 Y40.364 E2.00902
G1 X10.303 Y40.286 E2.01354
G1 X10.082 Y40.158 E2.01805
G1 X9.893 Y39.987 E2.02255
G1 X9.742 Y39.781 E2.02706
G1 X9.639 Y39.548 E2.03157
G1 X9.585 Y39.298 E2.03608
G1 X9.585 Y29.042 E2.21725
G1 X9.639 Y28.792 E2.22176
G1 X9.742 Y28.559 E2.22627
G1 X9.893 Y28.353 E2.23077
G1 X10.082 Y28.182 E2.23528
G1 X10.304 Y28.054 E2.23981
G1 X10.554 Y27.975 E2.24445
G1 X10.800 Y27.949 E2.24881
G1 X11.054 Y27.976 E2.25332
G1 X11.297 Y28.054 E2.25784
G1 X11.518 Y28.182 E2.26235
G1 X11.707 Y28.353 E2.26685
G1 X11.858 Y28.559 E2.27136
G1 X11.961 Y28.792 E2.27587
G1 X12.015 Y29.042 E2.28038
G1 X12.015 Y39.298 E2.46155
G1 X11.961 Y39.548 E2.46606
G1 X11.858 Y39.781 E2.47057
G1 X11.707 Y39.987 E2.47507
G1 X11.518 Y40.158 E2.47958
G1 X11.297 Y40.286 E2.48409
G1 X11.111 Y40.346 E2.48754
G1 X11.054 Y40.364 F7800.000
G1 E0.48754 F1800.00000
G92 E0
G1 X8.054 Y40.364 F7800.000
G1 E2.00000 F1800.00000
G1 F900
G1 X7.800 Y40.391 E2.00451
G1 X7.546 Y40.364 E2.00902
G1 X7.303 Y40.286 E2.01354
G1 X7.082 Y40.158 E2.01805
G1 X6.893 Y39.987 E2.02255
G1 X6.742 Y39.781 E2.02706
G1 X6.639 Y39.548 E2.03157
G1 X6.585 Y39.298 E2.03608
G1 X6.585 Y29.042 E2.21725
G1 X6.639 Y28.792 E2.22176
G1 X6.742 Y28.559 E2.22627
G1 X6.893 Y28.353 E2.23077
G1 X7.082 Y28.182 E2.23528
G1 X7.304 Y28.054 E2.23981
G1 X7.554 Y27.975 E2.24445
G1 X7.800 Y27.949 E2.24881
G1 X8.054 Y27.976 E2.25332
G1 X8.297 Y28.054 E2.25784
G1 X8.518 Y28.182 E2.26235
G1 X8.707 Y28.353 E2.26685
G1 X8.858 Y28.559 E2.27136
G1 X8.961 Y28.792 E2.27587
G1 X9.015 Y29.042 E2.28038
G1 X9.015 Y39.298 E2.46155
G1 X8.961 Y39.548 E2.46606
G1 X8.858 Y39.781 E2.47057
G1 X8.707 Y39.987 E2.47507
G1 X8.518 Y40.158 E2.47958
G1 X8.297 Y40.286 E2.48409
G1 X8.111 Y40.346 E2.48754
G1 X8.054 Y40.364 F7800.000
G1 E0.48754 F1800.00000
G92 E0
G1 X14.193 Y77.722 F7800.000
G1 E2.00000 F1800.00000
G1 F3490.17
G1 X12.800 Y77.868 E2.02552
G1 X11.408 Y77.722 E2.05103
G1 X10.076 Y77.289 E2.07655
G1 X8.863 Y76.589 E2.10205
G1 X7.822 Y75.652 E2.12757
G1 X6.999 Y74.519 E2.15309
G1 X6.430 Y73.240 E2.17860
G1 X6.138 Y71.870 E2.20412
G1 X6.138 Y70.470 E2.22964
G1 X6.430 Y69.100 E2.25516
G1 X6.999 Y67.821 E2.28066
G1 X7.822 Y66.688 E2.30619
G1 X8.863 Y65.751 E2.33170
G1 X10.076 Y65.051 E2.35721
G1 X11.408 Y64.618 E2.38273
G1 X12.800 Y64.472 E2.40824
G1 X14.193 Y64.618 E2.43376
G1 X15.524 Y65.051 E2.45927
G1 X16.737 Y65.751 E2.48479
G1 X17.778 Y66.688 E2.51030
G1 X18.601 Y67.821 E2.53582
G1 X19.170 Y69.100 E2.56133
G1 X19.462 Y70.470 E2.58685
G1 X19.462 Y71.870 E2.61236
G1 X19.170 Y73.240 E2.63788
G1 X18.601 Y74.519 E2.66339
G1 X17.778 Y75.652 E2.68891
G1 X16.737 Y76.589 E2.71442
G1 X15.524 Y77.289 E2.73994
G1 X14.250 Y77.703 E2.76436
G1 X14.114 Y77.353 F7800.000
G1 F900
G1 X12.800 Y77.491 E2.78771
G1 X11.486 Y77.353 E2.81105
G1 X10.229 Y76.945 E2.83439
G1 X9.085 Y76.284 E2.85773
G1 X8.103 Y75.400 E2.88108
G1 X7.325 Y74.331 E2.90443
G1 X6.789 Y73.123 E2.92777
G1 X6.513 Y71.831 E2.95111
G1 X6.513 Y70.509 E2.97446
G1 X6.789 Y69.217 E2.99781
G1 X7.325 Y68.009 E3.02114
G1 X8.103 Y66.940 E3.04449
G1 X9.085 Y66.056 E3.06784
G1 X10.229 Y65.395 E3.09118
G1 X11.486 Y64.987 E3.11453
G1 X12.800 Y64.849 E3.13787
G1 X14.114 Y64.987 E3.16121
G1 X15.371 Y65.395 E3.18456
G1 X16.516 Y66.056 E3.20790
G1 X17.498 Y66.940 E3.23124
G1 X18.274 Y68.009 E3.25459
G1 X18.812 Y69.217 E3.27793
G1 X19.087 Y70.509 E3.30128
G1 X19.087 Y71.831 E3.32462
G1 X18.812 Y73.123 E3.34797
G1 X18.274 Y74.331 E3.37131
G1 X17.498 Y75.400 E3.39465
G1 X16.516 Y76.284 E3.41800
G1 X15.371 Y76.945 E3.44134
G1 X14.171 Y77.335 E3.46363
G1 X14.114 Y77.353 F7800.000
G1 E1.46363 F1800.00000
G92 E0
G1 X56.000 Y87.575 F7800.000
G1 E2.00000 F1800.00000
G1 F3490.17
G1 X3.229 Y87.575 E2.96154
G1 X2.732 Y87.526 E2.97065
G1 X2.309 Y87.398 E2.97870
G1 X1.863 Y87.165 E2.98786
G1 X1.502 Y86.869 E2.99637
G1 X1.203 Y86.504 E3.00496
G1 X0.980 Y86.089 E3.01354
G1 X0.844 Y85.639 E3.02212
G1 X0.795 Y85.141 E3.03124
G1 X0.795 Y22.859 E4.16606
G1 X0.844 Y22.361 E4.17519
G1 X0.980 Y21.911 E4.18376
G1 X1.203 Y21.496 E4.19234
G1 X1.502 Y21.131 E4.20093
G1 X1.865 Y20.833 E4.20950
G1 X2.281 Y20.611 E4.21808
G1 X2.732 Y20.474 E4.22667
G1 X3.229 Y20.425 E4.23578
G1 X108.771 Y20.425 E6.15885
G1 X109.239 Y20.471 E6.16743
G1 X109.722 Y20.612 E6.17659
G1 X110.135 Y20.833 E6.18512
G1 X110.499 Y21.131 E6.19370
G1 X110.797 Y21.495 E6.20228
G1 X111.019 Y21.911 E6.21086
G1 X111.156 Y22.361 E6.21944
G1 X111.205 Y22.859 E6.22855
G1 X111.205 Y85.141 E7.36338
G1 X111.156 Y85.639 E7.37250
G1 X111.019 Y86.089 E7.38108
G1 X110.797 Y86.505 E7.38966
G1 X110.499 Y86.869 E7.39824
G1 X110.135 Y87.167 E7.40682
G1 X109.719 Y87.389 E7.41540
G1 X109.269 Y87.526 E7.42398
G1 X108.771 Y87.575 E7.43310
G1 X56.060 Y87.575 E8.39354
G1 X56.000 Y87.950 F7800.000
G1 F3600
G1 X3.211 Y87.950 E9.32606
G1 X2.658 Y87.896 E9.33587
G1 X2.166 Y87.746 E9.34495
G1 X1.655 Y87.480 E9.35514
G1 X1.235 Y87.135 E9.36473
G1 X0.890 Y86.714 E9.37436
G1 X0.632 Y86.233 E9.38399
G1 X0.475 Y85.712 E9.39361
G1 X0.420 Y85.159 E9.40342
G1 X0.420 Y22.841 E10.50428
G1 X0.475 Y22.288 E10.51410
G1 X0.632 Y21.767 E10.52372
G1 X0.890 Y21.286 E10.53335
G1 X1.235 Y20.865 E10.54297
G1 X1.656 Y20.519 E10.55259
G1 X2.137 Y20.263 E10.56221
G1 X2.658 Y20.104 E10.57184
G1 X3.211 Y20.050 E10.58165
G1 X108.789 Y20.050 E12.44670
G1 X109.311 Y20.101 E12.45597
G1 X109.864 Y20.263 E12.46615
G1 X110.344 Y20.519 E12.47575
G1 X110.765 Y20.865 E12.48538
G1 X111.111 Y21.286 E12.49500
G1 X111.367 Y21.767 E12.50462
G1 X111.526 Y22.288 E12.51425
G1 X111.580 Y22.841 E12.52406
G1 X111.580 Y85.159 E13.62492
G1 X111.526 Y85.712 E13.63474
G1 X111.367 Y86.233 E13.64436
G1 X111.111 Y86.714 E13.65398
G1 X110.765 Y87.135 E13.66361
G1 X110.344 Y87.481 E13.67323
G1 X109.863 Y87.737 E13.68285
G1 X109.342 Y87.896 E13.69248
G1 X108.789 Y87.950 E13.70229
G1 X56.060 Y87.950 E14.63376
G1 X55.800 Y87.604 F7800.000
G1 E12.63376 F1800.00000
G92 E0
G1 X60.169 Y87.194 F7800.000
G1 E2.00000 F1800.00000
G1 F1575
G1 X61.693 Y86.964 E2.02809
G1 X63.188 Y86.668 E2.05584
G1 X64.667 Y86.305 E2.08359
G1 X66.127 Y85.874 E2.11134
G1 X67.567 Y85.377 E2.13910
G1 X68.983 Y84.815 E2.16685
G1 X70.372 Y84.190 E2.19460
G1 X71.730 Y83.501 E2.22235
G1 X73.056 Y82.752 E2.25011
G1 X74.347 Y81.943 E2.27786
G1 X75.599 Y81.076 E2.30561
G1 X76.810 Y80.153 E2.33336
G1 X77.978 Y79.175 E2.36111
G1 X79.101 Y78.146 E2.38887
G1 X80.175 Y77.066 E2.41662
G1 X81.199 Y75.939 E2.44437
G1 X81.691 Y75.358 E2.45825
G1 X82.405 Y74.465 E2.47906
G1 X83.308 Y73.239 E2.50681
G1 X84.154 Y71.973 E2.53457
G1 X84.942 Y70.669 E2.56232
G1 X85.670 Y69.331 E2.59007
G1 X86.335 Y67.961 E2.61782
G1 X86.938 Y66.562 E2.64557
G1 X87.476 Y65.137 E2.67333
G1 X87.948 Y63.689 E2.70108
G1 X88.354 Y62.221 E2.72883
G1 X88.693 Y60.736 E2.75658
G1 X88.964 Y59.238 E2.78433
G1 X89.165 Y57.728 E2.81209
G1 X89.298 Y56.211 E2.83984
G1 X89.362 Y54.689 E2.86759
G1 X89.356 Y53.166 E2.89534
G1 X89.280 Y51.645 E2.92309
G1 X89.178 Y50.507 E2.94391
G1 X89.088 Y49.751 E2.95779
G1 X88.857 Y48.245 E2.98554
G1 X88.557 Y46.752 E3.01329
G1 X88.190 Y45.274 E3.04104
G1 X87.755 Y43.814 E3.06879
G1 X87.254 Y42.376 E3.09655
G1 X86.688 Y40.962 E3.12430
G1 X86.058 Y39.575 E3.15205
G1 X85.366 Y38.218 E3.17980
G1 X84.612 Y36.895 E3.20755
G1 X83.798 Y35.607 E3.23531
G1 X82.927 Y34.358 E3.26306
G1 X81.999 Y33.150 E3.29081
G1 X81.017 Y31.986 E3.31856
G1 X79.983 Y30.868 E3.34632
G1 X78.899 Y29.798 E3.37407
G1 X77.767 Y28.779 E3.40182
G1 X76.590 Y27.812 E3.42957
G1 X75.370 Y26.901 E3.45732
G1 X74.109 Y26.046 E3.48508
G1 X72.811 Y25.250 E3.51283
G1 X71.477 Y24.514 E3.54058
G1 X70.112 Y23.839 E3.56833
G1 X68.717 Y23.228 E3.59608
G1 X67.295 Y22.681 E3.62384
G1 X65.850 Y22.200 E3.65159
G1 X64.384 Y21.785 E3.67934
G1 X62.901 Y21.438 E3.70709
G1 X61.404 Y21.159 E3.73484
G1 X59.896 Y20.949 E3.76260
G1 X58.336 Y20.806 E3.79113
G1 E1.79113 F1800.00000
G92 E0
G1 X61.597 Y20.806 F7800.000
G1 E2.00000 F1800.00000
G1 F1575
G1 X62.854 Y21.040 E2.02331
G1 X64.339 Y21.381 E2.05106
G1 X65.806 Y21.789 E2.07881
G1 X67.254 Y22.262 E2.10657
