; generated by Slic3r 1.3.0 on 2020-02-02 at 13:12:06

; external perimeters extrusion width = 0.44mm (0.00mm^3/s)
; perimeters extrusion width = 0.45mm (0.00mm^3/s)
; infill extrusion width = 0.45mm (10.05mm^3/s)
; solid infill extrusion width = 0.45mm (4.40mm^3/s)
; top infill extrusion width = 0.45mm (3.14mm^3/s)

M190 S110 ; set bed temperature and wait for it to be reached
M104 S240 ; set temperature
M92 X62.84266768245373; calibrate X
M92 Y62.20856538461538; calibrate Y
M92 Z2276.685910548523; calibrate Z
M92 E494; calibrate E
G28 X0 ; home X axis
G28 Y0 ; home Y axis
G28 Z0 ; home Z axis

M109 S240 ; set temperature and wait for it to be reached
G21 ; set units to millimeters
G90 ; use absolute coordinates
M82 ; use absolute distances for extrusion
G92 E0
G1 E-2.00000 F1800.00000
G92 E0
G1 Z0.330 F7800.000
G1 X56.000 Y87.575 F7800.000
G1 E2.00000 F1800.00000
G1 F3490.17
G1 X3.229 Y87.575 E2.96154
G1 X2.731 Y87.526 E2.97065
G1 X2.281 Y87.389 E2.97923
G1 X1.869 Y87.169 E2.98774
G1 X1.501 Y86.868 E2.99640
G1 X1.203 Y86.505 E3.00497
G1 X0.981 Y86.089 E3.01355
G1 X0.844 Y85.639 E3.02213
G1 X0.795 Y85.141 E3.03125
G1 X0.795 Y22.859 E4.16608
G1 X0.844 Y22.361 E4.17519
G1 X0.981 Y21.911 E4.18377
G1 X1.203 Y21.495 E4.19235
G1 X1.501 Y21.131 E4.20093
G1 X1.865 Y20.833 E4.20951
G1 X2.281 Y20.611 E4.21810
G1 X2.728 Y20.475 E4.22661
G1 X3.230 Y20.425 E4.23580
G1 X108.771 Y20.425 E6.15886
G1 X109.265 Y20.474 E6.16790
G1 X109.720 Y20.611 E6.17656
G1 X110.135 Y20.833 E6.18514
G1 X110.498 Y21.131 E6.19371
G1 X110.797 Y21.496 E6.20230
G1 X111.020 Y21.911 E6.21088
G1 X111.156 Y22.361 E6.21945
G1 X111.205 Y22.859 E6.22857
G1 X111.205 Y85.141 E7.36340
G1 X111.156 Y85.639 E7.37252
G1 X111.020 Y86.089 E7.38109
G1 X110.797 Y86.504 E7.38968
G1 X110.498 Y86.869 E7.39826
G1 X110.135 Y87.167 E7.40683
G1 X109.719 Y87.389 E7.41542
G1 X109.268 Y87.526 E7.42400
G1 X108.771 Y87.575 E7.43311
G1 X56.060 Y87.575 E8.39356
G1 X56.000 Y87.950 F7800.000
G1 F3600
G1 X3.211 Y87.950 E9.32608
G1 X2.658 Y87.896 E9.33590
G1 X2.137 Y87.737 E9.34552
G1 X1.660 Y87.483 E9.35507
G1 X1.235 Y87.135 E9.36477
G1 X0.889 Y86.714 E9.37439
G1 X0.633 Y86.233 E9.38401
G1 X0.474 Y85.712 E9.39363
G1 X0.420 Y85.159 E9.40345
G1 X0.420 Y22.841 E10.50431
G1 X0.474 Y22.288 E10.51413
G1 X0.633 Y21.767 E10.52375
G1 X0.889 Y21.286 E10.53337
G1 X1.235 Y20.865 E10.54299
G1 X1.656 Y20.519 E10.55262
G1 X2.137 Y20.263 E10.56224
G1 X2.654 Y20.106 E10.57179
G1 X3.211 Y20.050 E10.58168
G1 X108.789 Y20.050 E12.44673
G1 X109.338 Y20.104 E12.45647
G1 X109.864 Y20.263 E12.46617
G1 X110.344 Y20.519 E12.47579
G1 X110.765 Y20.865 E12.48541
G1 X111.110 Y21.286 E12.49503
G1 X111.368 Y21.767 E12.50466
G1 X111.525 Y22.288 E12.51428
G1 X111.580 Y22.841 E12.52410
G1 X111.580 Y85.159 E13.62496
G1 X111.525 Y85.712 E13.63477
G1 X111.368 Y86.233 E13.64439
G1 X111.110 Y86.714 E13.65402
G1 X110.765 Y87.135 E13.66365
G1 X110.344 Y87.481 E13.67326
G1 X109.863 Y87.737 E13.68289
G1 X109.342 Y87.896 E13.69252
G1 X108.789 Y87.950 E13.70233
G1 X56.060 Y87.950 E14.63379
G1 X55.800 Y87.604 F7800.000
G1 E12.63379 F1800.00000
G92 E0
G1 X60.169 Y87.194 F7800.000
G1 E2.00000 F1800.00000
G1 F1575
G1 X61.693 Y86.964 E2.02809
G1 X63.188 Y86.668 E2.05584
G1 X64.667 Y86.305 E2.08359
G1 X66.127 Y85.874 E2.11134
G1 X67.567 Y85.377 E2.13910
G1 X68.983 Y84.815 E2.16685
G1 X70.372 Y84.190 E2.19460
G1 X71.730 Y83.501 E2.22235
G1 X73.056 Y82.752 E2.25011
G1 X74.347 Y81.943 E2.27786
G1 X75.599 Y81.076 E2.30561
G1 X76.810 Y80.153 E2.33336
G1 X77.978 Y79.175 E2.36111
G1 X79.101 Y78.146 E2.38887
G1 X80.175 Y77.066 E2.41662
G1 X81.199 Y75.939 E2.44437
G1 X81.691 Y75.358 E2.45825
G1 X82.405 Y74.465 E2.47906
G1 X83.308 Y73.239 E2.50681
G1 X84.154 Y71.973 E2.53457
G1 X84.942 Y70.669 E2.56232
G1 X85.670 Y69.331 E2.59007
G1 X86.335 Y67.961 E2.61782
G1 X86.938 Y66.562 E2.64557
G1 X87.476 Y65.137 E2.67333
G1 X87.948 Y63.689 E2.70108
G1 X88.354 Y62.221 E2.72883
G1 X88.693 Y60.736 E2.75658
G1 X88.964 Y59.238 E2.78433
G1 X89.165 Y57.728 E2.81209
G1 X89.298 Y56.211 E2.83984
G1 X89.362 Y54.689 E2.86759
G1 X89.356 Y53.166 E2.89534
G1 X89.280 Y51.645 E2.92309
G1 X89.178 Y50.507 E2.94391
G1 X89.088 Y49.751 E2.95779
G1 X88.857 Y48.245 E2.98554
G1 X88.557 Y46.752 E3.01329
G1 X88.190 Y45.274 E3.04104
G1 X87.755 Y43.814 E3.06879
G1 X87.254 Y42.376 E3.09655
G1 X86.688 Y40.962 E3.12430
G1 X86.058 Y39.575 E3.15205
G1 X85.366 Y38.218 E3.17980
G1 X84.612 Y36.895 E3.20755
G1 X83.798 Y35.607 E3.23531
G1 X82.927 Y34.358 E3.26306
G1 X81.999 Y33.150 E3.29081
G1 X81.017 Y31.986 E3.31856
G1 X79.983 Y30.868 E3.34632
G1 X78.899 Y29.798 E3.37407
G1 X77.767 Y28.779 E3.40182
G1 X76.590 Y27.812 E3.42957
G1 X75.370 Y26.901 E3.45732
G1 X74.109 Y26.046 E3.48508
G1 X72.811 Y25.250 E3.51283
G1 X71.477 Y24.514 E3.54058
G1 X70.112 Y23.839 E3.56833
G1 X68.717 Y23.228 E3.59608
G1 X67.295 Y22.681 E3.62384
G1 X65.850 Y22.200 E3.65159
G1 X64.384 Y21.785 E3.67934
G1 X62.901 Y21.438 E3.70709
G1 X61.404 Y21.159 E3.73484
G1 X59.896 Y20.949 E3.76260
G1 X58.336 Y20.806 E3.79113
G1 E1.79113 F1800.00000
G92 E0
G1 X61.597 Y20.806 F7800.000
G1 E2.00000 F1800.00000
G1 F1575
G1 X62.854 Y21.040 E2.02331
G1 X64.339 Y21.381 E2.05106
G1 X65.806 Y21.789 E2.07881
G1 X67.254 Y22.262 E2.10657
G1 X68.325 Y22.660 E2.12738
G1 X69.730 Y23.247 E2.15513
G1 X71.108 Y23.897 E2.18289
G1 X72.454 Y24.608 E2.21064
G1 X73.443 Y25.181 E2.23145
G1 X74.729 Y25.997 E2.25921
G1 X75.977 Y26.870 E2.28696
G1 X77.184 Y27.798 E2.31471
G1 X78.349 Y28.780 E2.34246
G1 X79.467 Y29.814 E2.37021
G1 X80.538 Y30.897 E2.39797
G1 X81.559 Y32.028 E2.42572
G1 X82.290 Y32.905 E2.44653
G1 X83.219 Y34.112 E2.47428
G1 X84.091 Y35.361 E2.50204
G1 X84.907 Y36.647 E2.52979
G1 X85.664 Y37.969 E2.55754
G1 X86.360 Y39.324 E2.58529
G1 X86.994 Y40.708 E2.61305
G1 X87.565 Y42.120 E2.64080
G1 X87.951 Y43.195 E2.66161
G1 X88.409 Y44.648 E2.68936
G1 X88.801 Y46.120 E2.71712
G1 X89.126 Y47.608 E2.74487
G1 X89.383 Y49.109 E2.77262
G1 X89.573 Y50.620 E2.80037
G1 X89.694 Y52.139 E2.82812
G1 X89.746 Y53.661 E2.85588
G1 X89.740 Y54.803 E2.87669
G1 X89.672 Y56.325 E2.90444
G1 X89.536 Y57.842 E2.93220
G1 X89.331 Y59.351 E2.95995
G1 X89.133 Y60.476 E2.98076
G1 X88.810 Y61.964 E3.00852
G1 X88.420 Y63.437 E3.03627
G1 X87.964 Y64.890 E3.06402
G1 X87.579 Y65.966 E3.08483
G1 X87.010 Y67.378 E3.11259
G1 X86.378 Y68.764 E3.14034
G1 X85.684 Y70.120 E3.16809
G1 X84.929 Y71.443 E3.19584
G1 X84.116 Y72.731 E3.22359
G1 X83.246 Y73.980 E3.25135
G1 X82.320 Y75.190 E3.27910
G1 X81.590 Y76.069 E3.29991
G1 X80.571 Y77.201 E3.32767
G1 X79.503 Y78.287 E3.35542
G1 X78.387 Y79.323 E3.38317
G1 X77.225 Y80.308 E3.41092
G1 X76.020 Y81.239 E3.43867
G1 X74.774 Y82.116 E3.46643
G1 X73.490 Y82.935 E3.49418
G1 X72.171 Y83.696 E3.52193
G1 X70.819 Y84.396 E3.54968
G1 X69.436 Y85.035 E3.57744
G1 X68.026 Y85.611 E3.60519
G1 X66.592 Y86.123 E3.63294
G1 X65.135 Y86.570 E3.66069
G1 X63.661 Y86.951 E3.68844
G1 X62.536 Y87.194 E3.70940
G1 X64.272 Y87.194 F7800.000
G1 F1575
G1 X65.707 Y86.801 E3.73652
G1 X67.156 Y86.334 E3.76427
G1 X68.229 Y85.941 E3.78508
G1 X69.638 Y85.363 E3.81284
G1 X71.020 Y84.722 E3.84059
G1 X72.372 Y84.020 E3.86834
G1 X73.364 Y83.455 E3.88915
G1 X74.657 Y82.650 E3.91691
G1 X75.603 Y82.009 E3.93772
G1 X76.829 Y81.106 E3.96547
G1 X78.014 Y80.149 E3.99323
G1 X79.156 Y79.140 E4.02098
G1 X79.981 Y78.351 E4.04179
G1 X81.041 Y77.256 E4.06955
G1 X82.050 Y76.116 E4.09730
G1 X83.007 Y74.931 E4.12505
G1 X83.911 Y73.705 E4.15280
G1 X84.759 Y72.440 E4.18055
G1 X85.550 Y71.139 E4.20831
G1 X86.105 Y70.140 E4.22912
G1 X86.792 Y68.781 E4.25687
G1 X87.418 Y67.392 E4.28463
G1 X87.982 Y65.977 E4.31238
G1 X88.362 Y64.900 E4.33319
G1 X88.707 Y63.811 E4.35401
G1 X89.109 Y62.342 E4.38176
G1 X89.446 Y60.857 E4.40951
G1 X89.716 Y59.358 E4.43726
G1 X89.874 Y58.226 E4.45808
G1 X90.026 Y56.711 E4.48583
G1 X90.110 Y55.190 E4.51358
G1 X90.127 Y53.667 E4.54134
G1 X90.075 Y52.145 E4.56909
G1 X89.956 Y50.627 E4.59684
G1 X89.822 Y49.492 E4.61765
G1 X89.584 Y47.988 E4.64541
G1 X89.280 Y46.495 E4.67316
G1 X89.008 Y45.386 E4.69397
G1 X88.588 Y43.922 E4.72173
G1 X88.103 Y42.478 E4.74948
G1 X87.554 Y41.057 E4.77723
G1 X86.942 Y39.662 E4.80498
G1 X86.443 Y38.635 E4.82580
G1 X85.724 Y37.292 E4.85355
G1 X84.946 Y35.983 E4.88130
G1 X84.325 Y35.024 E4.90212
G1 X83.447 Y33.780 E4.92987
G1 X82.514 Y32.576 E4.95762
G1 X81.528 Y31.414 E4.98537
G1 X80.492 Y30.298 E5.01312
G1 X79.407 Y29.230 E5.04088
G1 X78.562 Y28.461 E5.06169
G1 X77.396 Y27.480 E5.08944
G1 X76.188 Y26.553 E5.11720
G1 X74.940 Y25.680 E5.14495
G1 X73.979 Y25.063 E5.16576
G1 X72.666 Y24.290 E5.19352
G1 X71.320 Y23.578 E5.22127
G1 X70.290 Y23.083 E5.24208
G1 X68.893 Y22.477 E5.26983
G1 X67.828 Y22.064 E5.29065
G1 X66.387 Y21.570 E5.31840
G1 X64.926 Y21.141 E5.34615
G1 X63.572 Y20.806 E5.37156
G1 X65.144 Y20.806 F7800.000
G1 F1575
G1 X66.501 Y21.207 E5.39735
G1 X67.942 Y21.701 E5.42510
G1 X69.359 Y22.258 E5.45285
G1 X70.406 Y22.717 E5.47367
G1 X71.436 Y23.210 E5.49448
G1 X72.783 Y23.920 E5.52223
G1 X74.098 Y24.689 E5.54999
G1 X75.378 Y25.515 E5.57774
G1 X76.312 Y26.172 E5.59855
G1 X77.524 Y27.095 E5.62631
G1 X78.406 Y27.821 E5.64712
G1 X79.542 Y28.835 E5.67487
G1 X80.365 Y29.628 E5.69569
G1 X81.420 Y30.726 E5.72344
G1 X82.425 Y31.870 E5.75119
G1 X83.379 Y33.058 E5.77894
G1 X84.060 Y33.975 E5.79976
G1 X84.919 Y35.233 E5.82751
G1 X85.527 Y36.200 E5.84833
G1 X86.286 Y37.520 E5.87608
G1 X86.817 Y38.532 E5.89689
G1 X87.473 Y39.906 E5.92465
G1 X88.067 Y41.309 E5.95240
G1 X88.599 Y42.736 E5.98015
G1 X89.067 Y44.186 E6.00790
G1 X89.375 Y45.285 E6.02872
G1 X89.730 Y46.767 E6.05647
G1 X90.019 Y48.262 E6.08422
G1 X90.193 Y49.391 E6.10504
G1 X90.365 Y50.904 E6.13279
G1 X90.471 Y52.424 E6.16054
G1 X90.510 Y53.946 E6.18829
G1 X90.495 Y55.089 E6.20911
G1 X90.416 Y56.610 E6.23686
G1 X90.312 Y57.747 E6.25767
G1 X90.116 Y59.258 E6.28543
G1 X89.926 Y60.384 E6.30624
G1 X89.614 Y61.875 E6.33399
G1 X89.236 Y63.351 E6.36175
G1 X88.794 Y64.808 E6.38950
G1 X88.421 Y65.888 E6.41031
G1 X87.867 Y67.307 E6.43807
G1 X87.412 Y68.354 E6.45888
G1 X86.751 Y69.726 E6.48663
G1 X86.215 Y70.736 E6.50745
G1 X85.451 Y72.053 E6.53520
G1 X84.628 Y73.335 E6.56295
G1 X83.750 Y74.579 E6.59070
G1 X83.057 Y75.487 E6.61152
G1 X82.085 Y76.660 E6.63927
G1 X81.323 Y77.511 E6.66009
G1 X80.265 Y78.606 E6.68784
G1 X79.440 Y79.396 E6.70865
G1 X78.300 Y80.406 E6.73641
G1 X77.116 Y81.365 E6.76416
G1 X75.892 Y82.271 E6.79191
G1 X74.629 Y83.122 E6.81966
G1 X73.657 Y83.723 E6.84048
G1 X72.332 Y84.475 E6.86823
G1 X70.976 Y85.167 E6.89598
G1 X69.939 Y85.646 E6.91680
G1 X68.533 Y86.232 E6.94455
G1 X67.102 Y86.755 E6.97230
G1 X65.718 Y87.194 E6.99876
G1 X66.989 Y87.194 F7800.000
G1 F1575
G1 X68.226 Y86.757 E7.02267
G1 X69.640 Y86.191 E7.05042
G1 X70.684 Y85.726 E7.07124
G1 X72.051 Y85.054 E7.09899
G1 X73.387 Y84.323 E7.12674
G1 X74.367 Y83.737 E7.14755
G1 X75.328 Y83.120 E7.16837
G1 X76.577 Y82.248 E7.19612
G1 X77.488 Y81.558 E7.21694
G1 X78.667 Y80.594 E7.24469
G1 X79.803 Y79.579 E7.27244
G1 X80.893 Y78.515 E7.30019
G1 X81.680 Y77.687 E7.32101
G1 X82.686 Y76.544 E7.34876
G1 X83.407 Y75.658 E7.36958
G1 X84.323 Y74.441 E7.39733
G1 X85.185 Y73.185 E7.42508
G1 X85.991 Y71.893 E7.45283
G1 X86.741 Y70.567 E7.48058
G1 X87.264 Y69.552 E7.50140
G1 X87.754 Y68.520 E7.52221
G1 X88.355 Y67.120 E7.54997
G1 X88.765 Y66.054 E7.57078
G1 X89.257 Y64.613 E7.59853
G1 X89.585 Y63.518 E7.61935
G1 X89.965 Y62.043 E7.64710
G1 X90.281 Y60.554 E7.67485
G1 X90.532 Y59.051 E7.70261
G1 X90.717 Y57.539 E7.73036
G1 X90.812 Y56.401 E7.75117
G1 X90.870 Y55.260 E7.77199
G1 X90.889 Y53.737 E7.79974
G1 X90.860 Y52.595 E7.82055
G1 X90.763 Y51.075 E7.84831
G1 X90.599 Y49.561 E7.87606
G1 X90.370 Y48.055 E7.90381
G1 X90.155 Y46.933 E7.92463
G1 X89.811 Y45.449 E7.95238
G1 X89.511 Y44.347 E7.97319
G1 X89.055 Y42.894 E8.00095
G1 X88.536 Y41.462 E8.02870
G1 X87.955 Y40.054 E8.05645
G1 X87.479 Y39.016 E8.07727
G1 X86.792 Y37.656 E8.10502
G1 X86.047 Y36.328 E8.13277
G1 X85.450 Y35.354 E8.15358
G1 X84.821 Y34.400 E8.17440
G1 X83.936 Y33.161 E8.20215
G1 X82.996 Y31.962 E8.22990
G1 X82.258 Y31.090 E8.25072
G1 X81.230 Y29.967 E8.27847
G1 X80.154 Y28.889 E8.30622
G1 X79.316 Y28.112 E8.32704
G1 X78.161 Y27.120 E8.35479
G1 X76.963 Y26.179 E8.38254
G1 X76.038 Y25.508 E8.40336
G1 X74.772 Y24.662 E8.43111
G1 X73.799 Y24.063 E8.45192
G1 X72.472 Y23.316 E8.47968
G1 X71.455 Y22.794 E8.50049
G1 X70.423 Y22.306 E8.52131
G1 X69.022 Y21.708 E8.54906
G1 X67.596 Y21.172 E8.57681
G1 X66.495 Y20.806 E8.59795
G1 X67.701 Y20.806 F7800.000
G1 F1575
G1 X68.936 Y21.264 E8.62194
G1 X70.341 Y21.852 E8.64969
G1 X71.719 Y22.500 E8.67745
G1 X72.734 Y23.025 E8.69826
G1 X74.059 Y23.775 E8.72601
G1 X75.031 Y24.375 E8.74683
G1 X76.296 Y25.224 E8.77458
G1 X77.220 Y25.896 E8.79540
G1 X78.122 Y26.597 E8.81621
G1 X79.287 Y27.577 E8.84396
G1 X80.133 Y28.345 E8.86478
G1 X81.222 Y29.411 E8.89253
G1 X82.007 Y30.240 E8.91334
G1 X83.012 Y31.385 E8.94110
G1 X83.966 Y32.572 E8.96885
G1 X84.648 Y33.489 E8.98966
G1 X85.299 Y34.427 E9.01048
G1 X86.120 Y35.710 E9.03823
G1 X86.699 Y36.695 E9.05905
G1 X87.420 Y38.036 E9.08680
G1 X87.923 Y39.062 E9.10761
G1 X88.541 Y40.454 E9.13537
G1 X88.965 Y41.515 E9.15618
G1 X89.476 Y42.950 E9.18393
G1 X89.924 Y44.405 E9.21168
G1 X90.219 Y45.509 E9.23250
G1 X90.478 Y46.622 E9.25331
G1 X90.767 Y48.117 E9.28107
G1 X90.941 Y49.246 E9.30188
G1 X91.117 Y50.759 E9.32963
G1 X91.226 Y52.278 E9.35739
G1 X91.271 Y53.801 E9.38514
G1 X91.261 Y54.943 E9.40595
G1 X91.190 Y56.464 E9.43371
G1 X91.053 Y57.981 E9.46146
G1 X90.908 Y59.114 E9.48227
G1 X90.726 Y60.242 E9.50309
G1 X90.426 Y61.736 E9.53084
G1 X90.160 Y62.847 E9.55166
G1 X89.749 Y64.313 E9.57941
G1 X89.399 Y65.401 E9.60022
G1 X88.879 Y66.832 E9.62797
G1 X88.297 Y68.240 E9.65573
G1 X87.821 Y69.278 E9.67654
G1 X87.312 Y70.301 E9.69736
G1 X86.582 Y71.637 E9.72511
G1 X85.795 Y72.941 E9.75286
G1 X84.952 Y74.210 E9.78061
G1 X84.285 Y75.137 E9.80143
G1 X83.349 Y76.339 E9.82918
G1 X82.614 Y77.213 E9.85000
G1 X81.590 Y78.341 E9.87775
G1 X80.791 Y79.157 E9.89856
G1 X79.685 Y80.205 E9.92632
G1 X78.826 Y80.958 E9.94713
G1 X77.645 Y81.919 E9.97488
G1 X76.732 Y82.606 E9.99570
G1 X75.481 Y83.475 E10.02345
G1 X74.519 Y84.091 E10.04426
G1 X73.206 Y84.864 E10.07202
G1 X72.201 Y85.405 E10.09283
G1 X70.833 Y86.077 E10.12058
G1 X69.439 Y86.688 E10.14834
G1 X68.141 Y87.194 E10.17371
G1 X69.204 Y87.194 F7800.000
G1 F1575
G1 X70.388 Y86.697 E10.19710
G1 X71.767 Y86.051 E10.22485
G1 X72.783 Y85.529 E10.24567
G1 X74.111 Y84.783 E10.27342
G1 X75.406 Y83.980 E10.30117
G1 X76.353 Y83.343 E10.32199
G1 X77.585 Y82.446 E10.34974
G1 X78.482 Y81.740 E10.37055
G1 X79.357 Y81.005 E10.39137
G1 X80.486 Y79.982 E10.41912
G1 X81.303 Y79.184 E10.43994
G1 X82.352 Y78.080 E10.46769
G1 X83.108 Y77.223 E10.48850
G1 X84.072 Y76.044 E10.51626
G1 X84.761 Y75.133 E10.53707
G1 X85.635 Y73.885 E10.56482
G1 X86.254 Y72.926 E10.58564
G1 X87.032 Y71.616 E10.61339
G1 X87.578 Y70.613 E10.63421
G1 X88.256 Y69.249 E10.66196
G1 X88.726 Y68.208 E10.68277
G1 X89.300 Y66.797 E10.71053
G1 X89.691 Y65.723 E10.73134
G1 X90.158 Y64.274 E10.75909
G1 X90.468 Y63.174 E10.77991
G1 X90.826 Y61.694 E10.80766
G1 X91.052 Y60.574 E10.82848
G1 X91.299 Y59.071 E10.85623
G1 X91.441 Y57.938 E10.87704
G1 X91.574 Y56.420 E10.90479
G1 X91.643 Y54.899 E10.93255
G1 X91.651 Y53.756 E10.95336
G1 X91.623 Y52.614 E10.97418
G1 X91.529 Y51.094 E11.00193
G1 X91.415 Y49.958 E11.02274
G1 X91.208 Y48.449 E11.05050
G1 X91.010 Y47.324 E11.07131
G1 X90.690 Y45.834 E11.09906
G1 X90.409 Y44.727 E11.11988
G1 X89.979 Y43.266 E11.14763
G1 X89.486 Y41.825 E11.17538
G1 X89.077 Y40.758 E11.19620
G1 X88.479 Y39.358 E11.22395
G1 X87.991 Y38.325 E11.24477
G1 X87.470 Y37.308 E11.26558
G1 X86.725 Y35.979 E11.29333
G1 X86.130 Y35.004 E11.31415
G1 X85.288 Y33.735 E11.34190
G1 X84.622 Y32.807 E11.36272
G1 X83.687 Y31.604 E11.39047
G1 X82.953 Y30.729 E11.41128
G1 X81.932 Y29.600 E11.43903
G1 X80.862 Y28.515 E11.46679
G1 X80.031 Y27.732 E11.48760
G1 X78.884 Y26.730 E11.51535
G1 X77.996 Y26.011 E11.53617
G1 X77.085 Y25.321 E11.55698
G1 X75.837 Y24.448 E11.58474
G1 X74.553 Y23.628 E11.61249
G1 X73.568 Y23.050 E11.63330
