; generated by Slic3r 1.3.0 on 2020-01-31 at 18:30:13

; external perimeters extrusion width = 0.44mm (0.00mm^3/s)
; perimeters extrusion width = 0.45mm (0.00mm^3/s)
; infill extrusion width = 0.45mm (10.05mm^3/s)
; solid infill extrusion width = 0.45mm (4.40mm^3/s)
; top infill extrusion width = 0.45mm (3.14mm^3/s)

M190 S110 ; set bed temperature and wait for it to be reached
M104 S240 ; set temperature
M92 X62.02053242424242; calibrate X
M92 Y62.20856538461538; calibrate Y
M92 Z2276.685910548523; calibrate Z
M92 E494; calibrate E
G28 X0 ; home X axis
G28 Y0 ; home Y axis
G28 Z0 ; home Z axis

M109 S240 ; set temperature and wait for it to be reached
G21 ; set units to millimeters
G90 ; use absolute coordinates
M82 ; use absolute distances for extrusion
G92 E0
G1 E-2.00000 F1800.00000
G92 E0
G1 Z0.330 F7800.000
G1 X56.000 Y85.075 F7800.000
G1 E2.00000 F1800.00000
G1 F3490.17
G1 X3.229 Y85.075 E2.96154
G1 X2.731 Y85.026 E2.97065
G1 X2.281 Y84.889 E2.97923
G1 X1.865 Y84.667 E2.98781
G1 X1.501 Y84.369 E2.99639
G1 X1.203 Y84.005 E3.00497
G1 X0.981 Y83.589 E3.01355
G1 X0.844 Y83.139 E3.02213
G1 X0.795 Y82.641 E3.03125
G1 X0.795 Y25.359 E4.07497
G1 X0.844 Y24.861 E4.08409
G1 X0.981 Y24.411 E4.09267
G1 X1.203 Y23.995 E4.10125
G1 X1.501 Y23.631 E4.10983
G1 X1.865 Y23.333 E4.11841
G1 X2.281 Y23.111 E4.12699
G1 X2.731 Y22.974 E4.13557
G1 X3.229 Y22.925 E4.14469
G1 X108.771 Y22.925 E6.06776
G1 X109.265 Y22.974 E6.07680
G1 X109.720 Y23.111 E6.08546
G1 X110.135 Y23.333 E6.09404
G1 X110.498 Y23.631 E6.10261
G1 X110.797 Y23.996 E6.11119
G1 X111.020 Y24.411 E6.11978
G1 X111.156 Y24.861 E6.12835
G1 X111.205 Y25.359 E6.13747
G1 X111.205 Y82.641 E7.18119
G1 X111.156 Y83.139 E7.19031
G1 X111.020 Y83.589 E7.19889
G1 X110.797 Y84.004 E7.20747
G1 X110.498 Y84.369 E7.21606
G1 X110.135 Y84.667 E7.22463
G1 X109.719 Y84.889 E7.23321
G1 X109.268 Y85.026 E7.24179
G1 X108.771 Y85.075 E7.25091
G1 X56.060 Y85.075 E8.21135
G1 X56.000 Y85.450 F7800.000
G1 F3600
G1 X3.211 Y85.450 E9.14387
G1 X2.658 Y85.396 E9.15369
G1 X2.137 Y85.237 E9.16331
G1 X1.656 Y84.981 E9.17294
G1 X1.235 Y84.635 E9.18256
G1 X0.889 Y84.214 E9.19218
G1 X0.633 Y83.733 E9.20181
G1 X0.474 Y83.212 E9.21143
G1 X0.420 Y82.659 E9.22124
G1 X0.420 Y25.341 E10.23378
G1 X0.474 Y24.788 E10.24359
G1 X0.633 Y24.267 E10.25322
G1 X0.889 Y23.786 E10.26284
G1 X1.235 Y23.365 E10.27246
G1 X1.656 Y23.019 E10.28209
G1 X2.137 Y22.763 E10.29171
G1 X2.658 Y22.604 E10.30133
G1 X3.211 Y22.550 E10.31115
G1 X108.789 Y22.550 E12.17620
G1 X109.338 Y22.604 E12.18594
G1 X109.864 Y22.763 E12.19564
G1 X110.344 Y23.019 E12.20527
G1 X110.765 Y23.365 E12.21488
G1 X111.110 Y23.786 E12.22451
G1 X111.368 Y24.267 E12.23413
G1 X111.525 Y24.788 E12.24375
G1 X111.580 Y25.341 E12.25357
G1 X111.580 Y82.659 E13.26610
G1 X111.525 Y83.212 E13.27592
G1 X111.368 Y83.733 E13.28554
G1 X111.110 Y84.214 E13.29517
G1 X110.765 Y84.635 E13.30479
G1 X110.344 Y84.981 E13.31441
G1 X109.863 Y85.237 E13.32403
G1 X109.342 Y85.396 E13.33366
G1 X108.789 Y85.450 E13.34347
G1 X56.060 Y85.450 E14.27494
G1 X55.800 Y85.104 F7800.000
G1 E12.27494 F1800.00000
G92 E0
G1 X58.449 Y84.694 F7800.000
G1 E2.00000 F1800.00000
G1 F1575
G1 X59.821 Y84.552 E2.02515
G1 X61.327 Y84.322 E2.05290
G1 X62.819 Y84.019 E2.08065
G1 X64.295 Y83.642 E2.10840
G1 X65.750 Y83.192 E2.13615
G1 X67.182 Y82.671 E2.16391
G1 X68.585 Y82.080 E2.19166
G1 X69.958 Y81.420 E2.21941
G1 X71.296 Y80.693 E2.24716
G1 X72.597 Y79.901 E2.27491
G1 X73.857 Y79.045 E2.30266
G1 X75.073 Y78.128 E2.33042
G1 X76.242 Y77.152 E2.35817
G1 X77.362 Y76.120 E2.38592
G1 X78.429 Y75.033 E2.41367
G1 X79.440 Y73.894 E2.44142
G1 X80.394 Y72.707 E2.46917
G1 X81.289 Y71.474 E2.49693
G1 X82.121 Y70.198 E2.52468
G1 X82.888 Y68.883 E2.55243
G1 X83.590 Y67.531 E2.58018
G1 X84.224 Y66.146 E2.60793
G1 X84.788 Y64.732 E2.63568
G1 X85.282 Y63.291 E2.66344
G1 X85.704 Y61.827 E2.69119
G1 X86.052 Y60.345 E2.71894
G1 X86.327 Y58.846 E2.74669
G1 X86.527 Y57.337 E2.77444
G1 X86.652 Y55.819 E2.80220
G1 X86.701 Y54.296 E2.82995
G1 X86.689 Y53.154 E2.85076
G1 X86.606 Y51.633 E2.87851
G1 X86.448 Y50.118 E2.90626
G1 X86.215 Y48.613 E2.93402
G1 X85.907 Y47.122 E2.96177
G1 X85.526 Y45.647 E2.98952
G1 X85.073 Y44.193 E3.01727
G1 X84.547 Y42.763 E3.04502
G1 X83.952 Y41.362 E3.07278
G1 X83.287 Y39.991 E3.10053
G1 X82.556 Y38.655 E3.12828
G1 X81.759 Y37.358 E3.15603
G1 X80.898 Y36.101 E3.18378
G1 X79.976 Y34.889 E3.21153
G1 X78.995 Y33.723 E3.23929
G1 X77.958 Y32.608 E3.26704
G1 X77.144 Y31.807 E3.28785
G1 X76.013 Y30.786 E3.31560
G1 X74.834 Y29.823 E3.34335
G1 X73.607 Y28.920 E3.37111
G1 X72.338 Y28.078 E3.39886
G1 X71.028 Y27.301 E3.42661
G1 X69.681 Y26.590 E3.45436
G1 X68.301 Y25.946 E3.48211
G1 X66.890 Y25.373 E3.50986
G1 X65.452 Y24.869 E3.53762
G1 X63.991 Y24.438 E3.56537
G1 X62.511 Y24.081 E3.59312
G1 X61.015 Y23.797 E3.62087
G1 X59.506 Y23.588 E3.64862
G1 X58.369 Y23.480 E3.66944
G1 X56.848 Y23.403 E3.69719
G1 X55.324 Y23.402 E3.72494
G1 X53.803 Y23.477 E3.75269
G1 X52.288 Y23.627 E3.78044
G1 X50.781 Y23.852 E3.80820
G1 X49.288 Y24.152 E3.83595
G1 X47.812 Y24.526 E3.86370
G1 X46.356 Y24.973 E3.89145
G1 X44.924 Y25.492 E3.91920
G1 X43.519 Y26.081 E3.94695
G1 X42.146 Y26.740 E3.97471
G1 X40.807 Y27.466 E4.00246
G1 X39.507 Y28.259 E4.03021
G1 X38.247 Y29.114 E4.05796
G1 X37.031 Y30.032 E4.08571
G1 X35.863 Y31.009 E4.11346
G1 X34.744 Y32.043 E4.14122
G1 X33.940 Y32.854 E4.16203
G1 X32.916 Y33.982 E4.18978
G1 X31.950 Y35.159 E4.21753
G1 X31.043 Y36.383 E4.24529
G1 X30.198 Y37.650 E4.27304
G1 X29.418 Y38.958 E4.30079
G1 X28.704 Y40.303 E4.32854
G1 X28.058 Y41.682 E4.35629
G1 X27.481 Y43.092 E4.38404
G1 X26.976 Y44.529 E4.41180
G1 X26.542 Y45.989 E4.43955
G1 X26.182 Y47.469 E4.46730
G1 X25.897 Y48.965 E4.49505
G1 X25.686 Y50.473 E4.52280
G1 X25.551 Y51.990 E4.55055
G1 X25.499 Y53.132 E4.57137
G1 X25.497 Y54.655 E4.59912
G1 X25.571 Y56.176 E4.62687
G1 X25.720 Y57.692 E4.65462
G1 X25.945 Y59.198 E4.68238
G1 X26.245 Y60.691 E4.71013
G1 X26.619 Y62.168 E4.73788
G1 X27.066 Y63.623 E4.76563
G1 X27.586 Y65.055 E4.79338
G1 X28.176 Y66.459 E4.82113
G1 X28.836 Y67.832 E4.84889
G1 X29.563 Y69.170 E4.87664
G1 X30.357 Y70.470 E4.90439
G1 X31.214 Y71.729 E4.93214
G1 X32.133 Y72.943 E4.95989
G1 X33.112 Y74.110 E4.98764
G1 X34.148 Y75.227 E5.01540
G1 X34.961 Y76.030 E5.03621
G1 X36.090 Y77.052 E5.06396
G1 X37.269 Y78.016 E5.09171
G1 X38.495 Y78.920 E5.11947
G1 X39.764 Y79.761 E5.14722
G1 X41.074 Y80.538 E5.17497
G1 X42.422 Y81.249 E5.20272
G1 X43.803 Y81.891 E5.23047
G1 X45.214 Y82.463 E5.25822
G1 X46.652 Y82.964 E5.28598
G1 X48.114 Y83.393 E5.31373
G1 X49.595 Y83.747 E5.34148
G1 X51.092 Y84.028 E5.36923
G1 X52.601 Y84.233 E5.39698
G1 X54.119 Y84.362 E5.42473
G1 X55.641 Y84.415 E5.45249
G1 X56.783 Y84.405 E5.47330
G1 X58.304 Y84.324 E5.50105
G1 X59.819 Y84.168 E5.52880
G1 X61.324 Y83.936 E5.55655
G1 X62.816 Y83.629 E5.58431
G1 X64.291 Y83.247 E5.61206
G1 X65.744 Y82.792 E5.63981
G1 X67.173 Y82.265 E5.66756
G1 X68.574 Y81.667 E5.69531
G1 X69.943 Y81.000 E5.72306
G1 X71.277 Y80.265 E5.75082
G1 X72.572 Y79.463 E5.77857
G1 X73.826 Y78.598 E5.80632
G1 X75.034 Y77.672 E5.83407
G1 X76.195 Y76.685 E5.86182
G1 X77.305 Y75.642 E5.88957
G1 X78.361 Y74.545 E5.91733
G1 X79.116 Y73.688 E5.93814
G1 X80.072 Y72.502 E5.96589
G1 X80.967 Y71.270 E5.99364
G1 X81.799 Y69.994 E6.02140
G1 X82.566 Y68.678 E6.04915
G1 X83.267 Y67.326 E6.07690
G1 X83.898 Y65.940 E6.10465
G1 X84.459 Y64.524 E6.13240
G1 X84.833 Y63.444 E6.15322
G1 X85.268 Y61.985 E6.18097
G1 X85.629 Y60.505 E6.20872
G1 X85.915 Y59.009 E6.23647
G1 X86.125 Y57.501 E6.26422
G1 X86.260 Y55.984 E6.29197
G1 X86.311 Y54.842 E6.31279
G1 X86.312 Y53.319 E6.34054
G1 X86.237 Y51.798 E6.36829
G1 X86.085 Y50.283 E6.39604
G1 X85.857 Y48.777 E6.42380
G1 X85.554 Y47.284 E6.45155
G1 X85.176 Y45.809 E6.47930
G1 X84.725 Y44.354 E6.50705
G1 X84.201 Y42.924 E6.53480
G1 X83.606 Y41.522 E6.56255
G1 X82.942 Y40.151 E6.59031
G1 X82.209 Y38.816 E6.61806
G1 X81.410 Y37.520 E6.64581
G1 X80.547 Y36.265 E6.67356
G1 X79.621 Y35.055 E6.70131
G1 X78.637 Y33.893 E6.72906
G1 X77.595 Y32.782 E6.75682
G1 X76.777 Y31.984 E6.77763
G1 X75.641 Y30.969 E6.80538
G1 X74.456 Y30.013 E6.83313
G1 X73.224 Y29.117 E6.86089
G1 X71.949 Y28.285 E6.88864
G1 X70.633 Y27.517 E6.91639
G1 X69.281 Y26.817 E6.94414
G1 X67.895 Y26.186 E6.97189
G1 X66.835 Y25.759 E6.99271
G1 X65.399 Y25.252 E7.02046
G1 X63.939 Y24.819 E7.04821
G1 X62.459 Y24.459 E7.07596
G1 X60.963 Y24.174 E7.10371
G1 X59.454 Y23.965 E7.13146
G1 X57.937 Y23.832 E7.15922
G1 X56.415 Y23.776 E7.18697
G1 X54.892 Y23.797 E7.21472
G1 X53.751 Y23.862 E7.23553
G1 X52.236 Y24.017 E7.26329
G1 X50.731 Y24.248 E7.29104
G1 X49.239 Y24.554 E7.31879
G1 X47.764 Y24.935 E7.34654
G1 X46.311 Y25.390 E7.37429
G1 X44.882 Y25.918 E7.40204
G1 X43.829 Y26.360 E7.42286
G1 X42.452 Y27.012 E7.45061
G1 X41.110 Y27.732 E7.47836
G1 X39.806 Y28.519 E7.50611
G1 X38.543 Y29.371 E7.53386
G1 X37.325 Y30.285 E7.56162
G1 X36.155 Y31.259 E7.58937
G1 X35.035 Y32.292 E7.61712
G1 X34.230 Y33.102 E7.63793
G1 X33.206 Y34.229 E7.66569
G1 X32.239 Y35.407 E7.69344
G1 X31.334 Y36.631 E7.72119
G1 X30.491 Y37.900 E7.74894
G1 X29.714 Y39.210 E7.77669
G1 X29.174 Y40.217 E7.79751
G1 X28.516 Y41.590 E7.82526
G1 X27.927 Y42.994 E7.85301
G1 X27.410 Y44.427 E7.88076
G1 X26.966 Y45.884 E7.90851
G1 X26.596 Y47.361 E7.93626
G1 X26.301 Y48.856 E7.96402
G1 X26.082 Y50.363 E7.99177
G1 X25.940 Y51.879 E8.01952
G1 X25.874 Y53.401 E8.04727
G1 X25.875 Y54.543 E8.06809
G1 X25.944 Y56.065 E8.09584
G1 X26.090 Y57.581 E8.12359
G1 X26.312 Y59.088 E8.15134
G1 X26.610 Y60.581 E8.17909
G1 X26.984 Y62.058 E8.20684
G1 X27.431 Y63.514 E8.23460
G1 X27.952 Y64.945 E8.26235
G1 X28.544 Y66.348 E8.29010
G1 X29.034 Y67.380 E8.31091
G1 X29.748 Y68.725 E8.33866
G1 X30.529 Y70.033 E8.36642
G1 X31.376 Y71.299 E8.39417
G1 X32.285 Y72.521 E8.42192
G1 X33.255 Y73.695 E8.44967
G1 X34.283 Y74.819 E8.47742
G1 X35.090 Y75.627 E8.49824
G1 X36.214 Y76.655 E8.52599
G1 X37.388 Y77.625 E8.55374
G1 X38.610 Y78.535 E8.58149
G1 X39.876 Y79.381 E8.60924
G1 X41.183 Y80.163 E8.63700
G1 X42.529 Y80.877 E8.66475
G1 X43.560 Y81.367 E8.68556
G1 X44.964 Y81.959 E8.71331
G1 X46.395 Y82.479 E8.74106
G1 X47.851 Y82.926 E8.76882
G1 X49.328 Y83.299 E8.79657
G1 X50.822 Y83.596 E8.82432
G1 X52.328 Y83.818 E8.85207
G1 X53.845 Y83.962 E8.87982
G1 X55.366 Y84.030 E8.90757
G1 X56.889 Y84.021 E8.93533
G1 X58.030 Y83.963 E8.95614
G1 X59.546 Y83.818 E8.98389
G1 X61.053 Y83.597 E9.01164
G1 X62.547 Y83.300 E9.03940
G1 X64.024 Y82.927 E9.06715
G1 X65.480 Y82.480 E9.09490
G1 X66.911 Y81.959 E9.12265
G1 X67.966 Y81.522 E9.14346
G1 X69.346 Y80.876 E9.17122
G1 X70.691 Y80.162 E9.19897
G1 X71.998 Y79.380 E9.22672
G1 X73.264 Y78.533 E9.25447
G1 X74.485 Y77.623 E9.28222
G1 X75.658 Y76.652 E9.30997
G1 X76.781 Y75.622 E9.33773
G1 X77.587 Y74.813 E9.35854
G1 X78.614 Y73.688 E9.38629
G1 X79.582 Y72.513 E9.41404
G1 X80.489 Y71.289 E9.44180
G1 X81.333 Y70.022 E9.46955
G1 X82.112 Y68.712 E9.49730
G1 X82.823 Y67.365 E9.52505
G1 X83.464 Y65.984 E9.55280
G1 X83.899 Y64.928 E9.57362
G1 X84.415 Y63.495 E9.60137
G1 X84.858 Y62.038 E9.62912
G1 X85.227 Y60.560 E9.65687
G1 X85.519 Y59.065 E9.68462
G1 X85.735 Y57.558 E9.71237
G1 X85.847 Y56.421 E9.73319
G1 X85.929 Y54.900 E9.76094
G1 X85.933 Y53.377 E9.78869
G1 X85.859 Y51.855 E9.81644
G1 X85.708 Y50.340 E9.84419
G1 X85.481 Y48.834 E9.87195
G1 X85.177 Y47.342 E9.89970
G1 X84.797 Y45.867 E9.92745
G1 X84.343 Y44.413 E9.95520
G1 X83.815 Y42.984 E9.98295
G1 X83.216 Y41.584 E10.01070
G1 X82.720 Y40.555 E10.03152
G1 X81.998 Y39.214 E10.05927
G1 X81.209 Y37.911 E10.08702
G1 X80.355 Y36.650 E10.11477
G1 X79.437 Y35.434 E10.14253
G1 X78.459 Y34.267 E10.17028
G1 X77.423 Y33.151 E10.19803
G1 X76.609 Y32.349 E10.21884
G1 X75.477 Y31.330 E10.24659
G1 X74.295 Y30.369 E10.27435
G1 X73.066 Y29.471 E10.30210
G1 X71.792 Y28.635 E10.32985
G1 X70.477 Y27.866 E10.35760
G1 X69.125 Y27.165 E10.38535
G1 X67.739 Y26.534 E10.41310
G1 X66.680 Y26.107 E10.43392
G1 X65.243 Y25.602 E10.46167
G1 X63.782 Y25.171 E10.48942
G1 X62.301 Y24.814 E10.51717
G1 X61.180 Y24.597 E10.53799
G1 X59.673 Y24.374 E10.56574
G1 X58.157 Y24.229 E10.59349
G1 X56.636 Y24.160 E10.62124
G1 X55.112 Y24.170 E10.64899
G1 X53.972 Y24.228 E10.66981
G1 X52.456 Y24.373 E10.69756
G1 X50.949 Y24.596 E10.72531
G1 X49.455 Y24.895 E10.75306
G1 X47.979 Y25.270 E10.78081
G1 X46.524 Y25.720 E10.80857
G1 X45.449 Y26.106 E10.82938
G1 X44.040 Y26.683 E10.85713
G1 X42.662 Y27.333 E10.88488
G1 X41.319 Y28.051 E10.91264
G1 X40.015 Y28.837 E10.94039
G1 X38.752 Y29.689 E10.96814
G1 X37.535 Y30.605 E10.99589
G1 X36.366 Y31.581 E11.02364
G1 X35.248 Y32.615 E11.05139
G1 X34.445 Y33.428 E11.07221
G1 X33.425 Y34.559 E11.09996
G1 X32.463 Y35.740 E11.12771
G1 X31.563 Y36.968 E11.15546
G1 X30.727 Y38.241 E11.18321
G1 X29.957 Y39.556 E11.21097
G1 X29.255 Y40.907 E11.23872
G1 X28.624 Y42.293 E11.26647
G1 X28.197 Y43.353 E11.28728
G1 X27.692 Y44.790 E11.31503
G1 X27.261 Y46.250 E11.34279
G1 X26.905 Y47.731 E11.37054
G1 X26.625 Y49.229 E11.39829
G1 X26.466 Y50.360 E11.41910
G1 X26.322 Y51.876 E11.44686
G1 X26.255 Y53.398 E11.47461
G1 X26.266 Y54.921 E11.50236
G1 X26.326 Y56.061 E11.52317
G1 X26.473 Y57.577 E11.55092
G1 X26.698 Y59.084 E11.57868
G1 X27.000 Y60.576 E11.60643
G1 X27.378 Y62.052 E11.63418
G1 X27.831 Y63.506 E11.66193
G1 X28.357 Y64.935 E11.68968
G1 X28.800 Y65.988 E11.71050
G1 X29.452 Y67.364 E11.73825
G1 X30.175 Y68.705 E11.76600
G1 X30.965 Y70.007 E11.79375
G1 X31.820 Y71.267 E11.82150
G1 X32.504 Y72.183 E11.84232
G1 X33.469 Y73.361 E11.87007
G1 X34.493 Y74.488 E11.89782
G1 X35.298 Y75.298 E11.91864
G1 X36.420 Y76.329 E11.94639
G1 X37.592 Y77.301 E11.97414
G1 X38.813 Y78.212 E12.00189
G1 X40.079 Y79.059 E12.02964
G1 X41.386 Y79.840 E12.05739
G1 X42.732 Y80.553 E12.08514
G1 X44.113 Y81.195 E12.11290
G1 X45.525 Y81.766 E12.14065
G1 X46.602 Y82.147 E12.16146
G1 X48.060 Y82.589 E12.18921
G1 X49.538 Y82.956 E12.21697
G1 X50.658 Y83.181 E12.23778
G1 X52.163 Y83.413 E12.26553
G1 X53.678 Y83.568 E12.29328
G1 X55.199 Y83.646 E12.32103
G1 X56.342 Y83.652 E12.34185
G1 X57.864 Y83.592 E12.36960
G1 X59.380 Y83.454 E12.39735
G1 X60.888 Y83.239 E12.42510
G1 X62.383 Y82.946 E12.45286
G1 X63.860 Y82.577 E12.48061
G1 X65.317 Y82.133 E12.50836
G1 X66.749 Y81.614 E12.53611
G1 X68.153 Y81.022 E12.56386
G1 X69.184 Y80.532 E12.58468
G1 X70.529 Y79.816 E12.61243
G1 X71.835 Y79.033 E12.64018
G1 X73.099 Y78.183 E12.66793
G1 X74.017 Y77.504 E12.68875
G1 X75.200 Y76.544 E12.71650
G1 X76.332 Y75.525 E12.74425
G1 X77.145 Y74.723 E12.76506
G1 X78.181 Y73.606 E12.79281
G1 X79.157 Y72.437 E12.82057
G1 X80.072 Y71.220 E12.84832
G1 X80.924 Y69.957 E12.87607
G1 X81.709 Y68.652 E12.90382
G1 X82.426 Y67.308 E12.93157
G1 X83.073 Y65.929 E12.95932
G1 X83.648 Y64.519 E12.98707
G1 X84.031 Y63.443 E13.00789
G1 X84.477 Y61.987 E13.03564
G1 X84.848 Y60.509 E13.06339
G1 X85.142 Y59.015 E13.09114
G1 X85.311 Y57.885 E13.11196
G1 X85.469 Y56.370 E13.13971
G1 X85.549 Y54.849 E13.16746
G1 X85.550 Y53.326 E13.19521
G1 X85.500 Y52.185 E13.21603
G1 X85.364 Y50.668 E13.24378
G1 X85.150 Y49.160 E13.27153
G1 X84.859 Y47.665 E13.29928
G1 X84.492 Y46.187 E13.32703
G1 X84.048 Y44.730 E13.35479
G1 X83.530 Y43.298 E13.38254
G1 X83.093 Y42.242 E13.40335
G1 X82.448 Y40.862 E13.43110
G1 X81.733 Y39.518 E13.45885
G1 X80.950 Y38.212 E13.48661
G1 X80.100 Y36.948 E13.51436
G1 X79.420 Y36.030 E13.53517
G1 X78.460 Y34.848 E13.56292
G1 X77.439 Y33.717 E13.59067
G1 X76.362 Y32.640 E13.61843
G1 X75.519 Y31.870 E13.63924
G1 X74.349 Y30.894 E13.66699
G1 X73.130 Y29.981 E13.69474
G1 X71.866 Y29.131 E13.72250
G1 X70.560 Y28.348 E13.75025
G1 X69.215 Y27.634 E13.77800
G1 X67.835 Y26.990 E13.80575
G1 X66.423 Y26.417 E13.83350
G1 X65.346 Y26.037 E13.85432
G1 X63.889 Y25.594 E13.88207
G1 X62.410 Y25.228 E13.90982
G1 X61.290 Y25.003 E13.93063
G1 X59.785 Y24.772 E13.95839
G1 X58.270 Y24.619 E13.98614
G1 X56.748 Y24.544 E14.01389
G1 X55.225 Y24.547 E14.04164
G1 X54.084 Y24.602 E14.06245
G1 X52.568 Y24.743 E14.09021
G1 X51.061 Y24.963 E14.11796
G1 X49.567 Y25.260 E14.14571
G1 X48.091 Y25.634 E14.17346
G1 X46.635 Y26.084 E14.20121
